; generated by PrusaSlicer 2.2.0+ on 2021-01-22 at 10:18:32 UTC

; 

; external perimeters extrusion width = 0.45mm
; perimeters extrusion width = 0.45mm
; infill extrusion width = 0.45mm
; solid infill extrusion width = 0.45mm
; top infill extrusion width = 0.40mm
; support material extrusion width = 0.35mm
; first layer extrusion width = 0.42mm

M201 X500 Y500 Z100 E5000 ; sets maximum accelerations, mm/sec^2
M203 X500 Y500 Z10 E60 ; sets maximum feedrates, mm/sec
M204 P500 R1000 T500 ; sets acceleration (P, T) and retract acceleration (R), mm/sec^2
M205 X8.00 Y8.00 Z0.40 E5.00 ; sets the jerk limits, mm/sec
M205 S0 T0 ; sets the minimum extruding and travel feed rate, mm/sec
M107
M190 S50 ; set bed temperature and wait for it to be reached
M104 S220 ; set temperature
; Ender 3 Custom Start G-code
G92 E0 ; Reset Extruder
G91 ; Relative positioning
G1 Z5 ; move 10 mm up
G90 ;Absolute positionning
G28 ; Home all axes
G29 ; Level Bed
G1 Z2.0 F3000 ; Move Z Axis up little to prevent scratching of Heat Bed
G1 X0.1 Y20 Z0.3 F5000.0 ; Move to start position
G1 X0.1 Y200.0 Z0.3 F1500.0 E15 ; Draw the first line
G1 X0.4 Y200.0 Z0.3 F5000.0 ; Move to side a little
G1 X0.4 Y20 Z0.3 F1500.0 E30 ; Draw the second line
G92 E0 ; Reset Extruder
G1 Z2.0 F3000 ; Move Z Axis up little to prevent scratching of Heat Bed
G1 X5 Y20 Z0.3 F5000.0 ; Move over to prevent blob squish
M109 S220 ; set temperature and wait for it to be reached
G21 ; set units to millimeters
G90 ; use absolute coordinates
M83 ; use relative distances for extrusion
; Filament gcode
;BEFORE_LAYER_CHANGE
;0.35


G1 E-5.00000 F3600.00000
G1 Z0.350 F7800.000
;AFTER_LAYER_CHANGE
;0.35
G1 X86.226 Y99.900
G1 E5.00000 F2400.00000
G1 F1800.000
G1 X87.600 Y99.127 E0.07912
G1 X88.742 Y98.781 E0.05987
G1 X89.928 Y98.656 E0.05987
G1 X130.006 Y98.655 E2.01136
G1 X130.985 Y98.732 E0.04930
G1 X131.941 Y98.959 E0.04930
G1 X132.850 Y99.331 E0.04930
G1 X133.691 Y99.839 E0.04930
G1 X134.439 Y100.466 E0.04898
G1 X135.085 Y101.206 E0.04930
G1 X135.610 Y102.036 E0.04930
G1 X136.000 Y102.938 E0.04930
G1 X136.252 Y103.919 E0.05085
G1 X136.344 Y104.928 E0.05085
G1 X136.344 Y115.106 E0.51078
G1 X136.152 Y116.552 E0.07323
G1 X135.753 Y117.677 E0.05987
G1 X135.146 Y118.711 E0.06019
G1 X134.361 Y119.609 E0.05987
G1 X133.415 Y120.347 E0.06019
G1 X132.521 Y120.823 E0.05085
G1 X123.435 Y124.668 E0.49514
G1 X122.280 Y125.015 E0.06050
G1 X121.087 Y125.138 E0.06019
G1 X98.894 Y124.983 E1.11382
G1 X97.811 Y124.877 E0.05459
G1 X96.623 Y124.536 E0.06205
G1 X86.956 Y120.567 E0.52443
G1 X86.055 Y119.969 E0.05428
G1 X85.268 Y119.227 E0.05428
G1 X84.619 Y118.362 E0.05428
G1 X84.126 Y117.400 E0.05428
G1 X83.791 Y116.306 E0.05739
G1 X83.657 Y115.165 E0.05770
G1 X83.655 Y104.938 E0.51324
G1 X83.767 Y103.812 E0.05676
G1 X84.250 Y102.318 E0.07881
G1 X85.089 Y100.983 E0.07912
G1 X86.182 Y99.941 E0.07580
G1 E-3.50000 F3600.00000
G1 F6240.000
G1 X87.600 Y99.127 E-0.89599
G1 X88.524 Y98.847 E-0.52901
G1 E-0.07500 F3600.00000
G1 X121.036 Y118.793 F7800.000
G1 E5.00000 F2400.00000
G1 F1800.000
G1 X121.036 Y115.397 E0.17042
G1 X120.347 Y115.397 E0.03462
G1 X120.347 Y118.638 E0.16263
G1 X119.657 Y118.638 E0.03462
G1 X119.657 Y115.397 E0.16263
G1 X118.967 Y115.397 E0.03462
G1 X118.967 Y118.638 E0.16263
G1 X118.277 Y118.638 E0.03462
G1 X118.277 Y115.397 E0.16263
G1 X117.588 Y115.397 E0.03462
G1 X117.588 Y118.638 E0.16263
G1 X116.898 Y118.638 E0.03462
G1 X116.898 Y115.397 E0.16263
G1 X116.208 Y115.397 E0.03462
G1 X116.208 Y118.638 E0.16263
G1 X115.518 Y118.638 E0.03462
G1 X115.518 Y115.397 E0.16263
G1 X114.828 Y115.397 E0.03462
G1 X114.828 Y118.638 E0.16263
G1 X114.139 Y118.638 E0.03462
G1 X114.139 Y115.397 E0.16263
G1 X113.449 Y115.397 E0.03462
G1 X113.449 Y118.638 E0.16263
G1 X112.759 Y118.638 E0.03462
G1 X112.759 Y115.397 E0.16263
G1 X112.069 Y115.397 E0.03462
G1 X112.069 Y118.638 E0.16263
G1 X111.380 Y118.638 E0.03462
G1 X111.380 Y115.397 E0.16263
G1 X110.690 Y115.397 E0.03462
G1 X110.690 Y118.638 E0.16263
G1 X110.000 Y118.638 E0.03462
G1 X110.000 Y115.397 E0.16263
G1 X109.310 Y115.397 E0.03462
G1 X109.310 Y118.638 E0.16263
G1 X108.620 Y118.638 E0.03462
G1 X108.620 Y115.397 E0.16263
G1 X107.931 Y115.397 E0.03462
G1 X107.931 Y118.638 E0.16263
G1 X107.241 Y118.638 E0.03462
G1 X107.241 Y115.397 E0.16263
G1 X106.551 Y115.397 E0.03462
G1 X106.551 Y118.638 E0.16263
G1 X105.861 Y118.638 E0.03462
G1 X105.861 Y115.397 E0.16263
G1 X105.172 Y115.397 E0.03462
G1 X105.172 Y118.638 E0.16263
G1 X104.482 Y118.638 E0.03462
G1 X104.482 Y115.397 E0.16263
G1 X103.792 Y115.397 E0.03462
G1 X103.792 Y118.638 E0.16263
G1 X103.102 Y118.638 E0.03462
G1 X103.102 Y115.397 E0.16263
G1 X102.412 Y115.397 E0.03462
G1 X102.412 Y118.638 E0.16263
G1 X101.723 Y118.638 E0.03462
G1 X101.723 Y115.397 E0.16263
G1 X101.033 Y115.397 E0.03462
G1 X101.033 Y118.638 E0.16263
G1 X100.343 Y118.638 E0.03462
G1 X100.343 Y115.397 E0.16263
G1 X99.653 Y115.397 E0.03462
G1 X99.653 Y118.638 E0.16263
G1 X98.964 Y118.638 E0.03462
G1 X98.964 Y115.242 E0.17042
G1 E-3.50000 F3600.00000
G1 F6240.000
G1 X98.964 Y117.842 E-1.42500
G1 E-0.07500 F3600.00000
G1 X128.900 Y113.900 F7800.000
G1 E5.00000 F2400.00000
G1 F1800.000
G1 X91.100 Y113.900 E1.89705
G1 X91.100 Y106.100 E0.39147
G1 X128.900 Y106.100 E1.89705
G1 X128.900 Y113.840 E0.38846
G1 X129.245 Y114.245 F7800.000
G1 F1800.000
G1 X90.755 Y114.245 E1.93167
G1 X90.755 Y105.755 E0.42609
G1 X129.245 Y105.755 E1.93167
G1 X129.245 Y114.185 E0.42308
G1 X129.590 Y114.590 F7800.000
G1 F1800.000
G1 X90.410 Y114.590 E1.96628
G1 X90.410 Y105.410 E0.46071
G1 X129.590 Y105.410 E1.96628
G1 X129.590 Y114.530 E0.45770
G1 X129.191 Y114.559 F7800.000
G1 E-3.50000 F3600.00000
G1 F6240.000
G1 X126.990 Y114.534 E-1.42500
G1 E-0.07500 F3600.00000
G1 X91.907 Y113.797 F7800.000
G1 E5.00000 F2400.00000
G1 F1800.000
G1 X91.358 Y113.249 E0.03924
G1 X91.358 Y112.757 E0.02490
G1 X92.243 Y113.642 E0.06334
G1 X92.735 Y113.642 E0.02490
G1 X91.358 Y112.265 E0.09855
G1 X91.358 Y111.773 E0.02490
G1 X93.227 Y113.642 E0.13376
G1 X93.719 Y113.642 E0.02490
G1 X91.358 Y111.281 E0.16897
G1 X91.358 Y110.789 E0.02490
G1 X94.211 Y113.642 E0.20418
G1 X94.703 Y113.642 E0.02490
G1 X91.358 Y110.297 E0.23939
G1 X91.358 Y109.805 E0.02490
G1 X95.195 Y113.642 E0.27460
G1 X95.687 Y113.642 E0.02490
G1 X91.358 Y109.313 E0.30982
G1 X91.358 Y108.821 E0.02490
G1 X96.179 Y113.642 E0.34503
G1 X96.671 Y113.642 E0.02490
G1 X91.358 Y108.329 E0.38024
G1 X91.358 Y107.838 E0.02490
G1 X97.162 Y113.642 E0.41545
G1 X97.654 Y113.642 E0.02490
G1 X91.358 Y107.346 E0.45066
G1 X91.358 Y106.854 E0.02490
G1 X98.146 Y113.642 E0.48587
G1 X98.638 Y113.642 E0.02490
G1 X91.358 Y106.358 E0.52120
G1 X91.847 Y106.358 E0.02473
G1 X99.130 Y113.642 E0.52132
G1 X99.622 Y113.642 E0.02490
G1 X92.339 Y106.358 E0.52132
G1 X92.831 Y106.358 E0.02490
G1 X100.114 Y113.642 E0.52132
G1 X100.606 Y113.642 E0.02490
G1 X93.323 Y106.358 E0.52132
G1 X93.815 Y106.358 E0.02490
G1 X101.098 Y113.642 E0.52132
G1 X101.590 Y113.642 E0.02490
G1 X94.307 Y106.358 E0.52132
G1 X94.798 Y106.358 E0.02490
G1 X102.082 Y113.642 E0.52132
G1 X102.573 Y113.642 E0.02490
G1 X95.290 Y106.358 E0.52132
G1 X95.782 Y106.358 E0.02490
G1 X103.065 Y113.642 E0.52132
G1 X103.557 Y113.642 E0.02490
G1 X96.274 Y106.358 E0.52132
G1 X96.766 Y106.358 E0.02490
G1 X104.049 Y113.642 E0.52132
G1 X104.541 Y113.642 E0.02490
G1 X97.258 Y106.358 E0.52132
G1 X97.750 Y106.358 E0.02490
G1 X105.033 Y113.642 E0.52132
G1 X105.525 Y113.642 E0.02490
G1 X98.242 Y106.358 E0.52132
G1 X98.734 Y106.358 E0.02490
G1 X106.017 Y113.642 E0.52132
G1 X106.509 Y113.642 E0.02490
G1 X99.226 Y106.358 E0.52132
G1 X99.718 Y106.358 E0.02490
G1 X107.001 Y113.642 E0.52132
G1 X107.493 Y113.642 E0.02490
G1 X100.209 Y106.358 E0.52132
G1 X100.701 Y106.358 E0.02490
G1 X107.985 Y113.642 E0.52132
G1 X108.476 Y113.642 E0.02490
G1 X101.193 Y106.358 E0.52132
G1 X101.685 Y106.358 E0.02490
G1 X108.968 Y113.642 E0.52132
G1 X109.460 Y113.642 E0.02490
G1 X102.177 Y106.358 E0.52132
G1 X102.669 Y106.358 E0.02490
G1 X109.952 Y113.642 E0.52132
G1 X110.444 Y113.642 E0.02490
G1 X103.161 Y106.358 E0.52132
G1 X103.653 Y106.358 E0.02490
G1 X110.936 Y113.642 E0.52132
G1 X111.428 Y113.642 E0.02490
G1 X104.145 Y106.358 E0.52132
G1 X104.637 Y106.358 E0.02490
G1 X111.920 Y113.642 E0.52132
G1 X112.412 Y113.642 E0.02490
G1 X105.129 Y106.358 E0.52132
G1 X105.621 Y106.358 E0.02490
G1 X112.904 Y113.642 E0.52132
G1 X113.396 Y113.642 E0.02490
G1 X106.112 Y106.358 E0.52132
G1 X106.604 Y106.358 E0.02490
G1 X113.887 Y113.642 E0.52132
G1 X114.379 Y113.642 E0.02490
G1 X107.096 Y106.358 E0.52132
G1 X107.588 Y106.358 E0.02490
G1 X114.871 Y113.642 E0.52132
G1 X115.363 Y113.642 E0.02490
G1 X108.080 Y106.358 E0.52132
G1 X108.572 Y106.358 E0.02490
G1 X115.855 Y113.642 E0.52132
G1 X116.347 Y113.642 E0.02490
G1 X109.064 Y106.358 E0.52132
G1 X109.556 Y106.358 E0.02490
G1 X116.839 Y113.642 E0.52132
G1 X117.331 Y113.642 E0.02490
G1 X110.048 Y106.358 E0.52132
G1 X110.540 Y106.358 E0.02490
G1 X117.823 Y113.642 E0.52132
G1 X118.315 Y113.642 E0.02490
G1 X111.032 Y106.358 E0.52132
G1 X111.523 Y106.358 E0.02490
G1 X118.807 Y113.642 E0.52132
G1 X119.299 Y113.642 E0.02490
G1 X112.015 Y106.358 E0.52132
G1 X112.507 Y106.358 E0.02490
G1 X119.790 Y113.642 E0.52132
G1 X120.282 Y113.642 E0.02490
G1 X112.999 Y106.358 E0.52132
G1 X113.491 Y106.358 E0.02490
G1 X120.774 Y113.642 E0.52132
G1 X121.266 Y113.642 E0.02490
G1 X113.983 Y106.358 E0.52132
G1 X114.475 Y106.358 E0.02490
G1 X121.758 Y113.642 E0.52132
G1 X122.250 Y113.642 E0.02490
G1 X114.967 Y106.358 E0.52132
G1 X115.459 Y106.358 E0.02490
G1 X122.742 Y113.642 E0.52132
G1 X123.234 Y113.642 E0.02490
G1 X115.951 Y106.358 E0.52132
G1 X116.443 Y106.358 E0.02490
G1 X123.726 Y113.642 E0.52132
G1 X124.218 Y113.642 E0.02490
G1 X116.935 Y106.358 E0.52132
G1 X117.426 Y106.358 E0.02490
G1 X124.710 Y113.642 E0.52132
G1 X125.201 Y113.642 E0.02490
G1 X117.918 Y106.358 E0.52132
G1 X118.410 Y106.358 E0.02490
G1 X125.693 Y113.642 E0.52132
G1 X126.185 Y113.642 E0.02490
G1 X118.902 Y106.358 E0.52132
G1 X119.394 Y106.358 E0.02490
G1 X126.677 Y113.642 E0.52132
G1 X127.169 Y113.642 E0.02490
G1 X119.886 Y106.358 E0.52132
G1 X120.378 Y106.358 E0.02490
G1 X127.661 Y113.642 E0.52132
G1 X128.153 Y113.642 E0.02490
G1 X120.870 Y106.358 E0.52132
G1 X121.362 Y106.358 E0.02490
G1 X128.642 Y113.638 E0.52109
G1 X128.642 Y113.146 E0.02490
G1 X121.854 Y106.358 E0.48588
G1 X122.346 Y106.358 E0.02490
G1 X128.642 Y112.654 E0.45067
G1 X128.642 Y112.163 E0.02490
G1 X122.837 Y106.358 E0.41546
G1 X123.329 Y106.358 E0.02490
G1 X128.642 Y111.671 E0.38024
G1 X128.642 Y111.179 E0.02490
G1 X123.821 Y106.358 E0.34503
G1 X124.313 Y106.358 E0.02490
G1 X128.642 Y110.687 E0.30982
G1 X128.642 Y110.195 E0.02490
G1 X124.805 Y106.358 E0.27461
G1 X125.297 Y106.358 E0.02490
G1 X128.642 Y109.703 E0.23940
G1 X128.642 Y109.211 E0.02490
G1 X125.789 Y106.358 E0.20419
G1 X126.281 Y106.358 E0.02490
G1 X128.642 Y108.719 E0.16898
G1 X128.642 Y108.227 E0.02490
G1 X126.773 Y106.358 E0.13377
G1 X127.265 Y106.358 E0.02490
G1 X128.642 Y107.735 E0.09856
G1 X128.642 Y107.243 E0.02490
G1 X127.757 Y106.358 E0.06335
G1 X128.249 Y106.358 E0.02490
G1 X128.797 Y106.907 E0.03924
;BEFORE_LAYER_CHANGE
;0.47


G1 E-3.50000 F3600.00000
G1 F6240.000
G1 X128.249 Y106.358 E-0.42495
G1 X127.757 Y106.358 E-0.26961
G1 X128.642 Y107.243 E-0.68593
G1 X128.642 Y107.325 E-0.04451
G1 E-0.07500 F3600.00000
G1 Z0.470 F7800.000
;AFTER_LAYER_CHANGE
;0.47
G1 X128.927 Y113.927
G1 E5.00000 F2400.00000
G1 F3600.000
G1 X91.073 Y113.927 E0.80119
G1 X91.073 Y106.073 E0.16622
G1 X128.927 Y106.073 E0.80119
G1 X128.927 Y113.867 E0.16495
G1 X129.351 Y114.351 F7800.000
G1 F3600.000
G1 X90.649 Y114.351 E0.81915
G1 X90.649 Y105.649 E0.18417
G1 X129.351 Y105.649 E0.81915
G1 X129.351 Y114.291 E0.18290
G1 X129.775 Y114.775 F7800.000
G1 F1800.000
G1 X90.225 Y114.775 E0.83711
G1 X90.225 Y105.225 E0.20213
G1 X129.775 Y105.225 E0.83711
G1 X129.775 Y114.715 E0.20086
G1 X129.376 Y114.743 F7800.000
G1 X92.064 Y106.201
G1 F1200.000
G1 X91.392 Y106.873 E0.02025
G1 X91.392 Y107.477 E0.01286
G1 X92.477 Y106.392 E0.03268
G1 X93.081 Y106.392 E0.01286
G1 X91.392 Y108.081 E0.05087
G1 X91.392 Y108.684 E0.01286
G1 X93.684 Y106.392 E0.06906
G1 X94.288 Y106.392 E0.01286
G1 X91.392 Y109.288 E0.08724
G1 X91.392 Y109.892 E0.01286
G1 X94.892 Y106.392 E0.10543
G1 X95.496 Y106.392 E0.01286
G1 X91.392 Y110.496 E0.12361
G1 X91.392 Y111.099 E0.01286
G1 X96.099 Y106.392 E0.14180
G1 X96.703 Y106.392 E0.01286
G1 X91.392 Y111.703 E0.15999
G1 X91.392 Y112.307 E0.01286
G1 X97.307 Y106.392 E0.17817
G1 X97.911 Y106.392 E0.01286
G1 X91.392 Y112.911 E0.19636
G1 X91.392 Y113.514 E0.01286
G1 X98.514 Y106.392 E0.21455
G1 X99.118 Y106.392 E0.01286
G1 X91.901 Y113.608 E0.21738
G1 X92.505 Y113.608 E0.01286
G1 X99.722 Y106.392 E0.21738
G1 X100.326 Y106.392 E0.01286
G1 X93.109 Y113.608 E0.21738
G1 X93.713 Y113.608 E0.01286
G1 X100.929 Y106.392 E0.21738
G1 X101.533 Y106.392 E0.01286
G1 X94.316 Y113.608 E0.21738
G1 X94.920 Y113.608 E0.01286
G1 X102.137 Y106.392 E0.21738
G1 X102.741 Y106.392 E0.01286
G1 X95.524 Y113.608 E0.21738
G1 X96.128 Y113.608 E0.01286
G1 X103.344 Y106.392 E0.21738
G1 X103.948 Y106.392 E0.01286
G1 X96.731 Y113.608 E0.21738
G1 X97.335 Y113.608 E0.01286
G1 X104.552 Y106.392 E0.21738
G1 X105.156 Y106.392 E0.01286
G1 X97.939 Y113.608 E0.21738
G1 X98.543 Y113.608 E0.01286
G1 X105.759 Y106.392 E0.21738
G1 X106.363 Y106.392 E0.01286
G1 X99.147 Y113.608 E0.21738
G1 X99.750 Y113.608 E0.01286
G1 X106.967 Y106.392 E0.21738
G1 X107.571 Y106.392 E0.01286
G1 X100.354 Y113.608 E0.21738
G1 X100.958 Y113.608 E0.01286
G1 X108.174 Y106.392 E0.21738
G1 X108.778 Y106.392 E0.01286
G1 X101.562 Y113.608 E0.21738
G1 X102.165 Y113.608 E0.01286
G1 X109.382 Y106.392 E0.21738
G1 X109.986 Y106.392 E0.01286
G1 X102.769 Y113.608 E0.21738
G1 X103.373 Y113.608 E0.01286
G1 X110.589 Y106.392 E0.21738
G1 X111.193 Y106.392 E0.01286
G1 X103.977 Y113.608 E0.21738
G1 X104.580 Y113.608 E0.01286
G1 X111.797 Y106.392 E0.21738
G1 X112.401 Y106.392 E0.01286
G1 X105.184 Y113.608 E0.21738
G1 X105.788 Y113.608 E0.01286
G1 X113.005 Y106.392 E0.21738
G1 X113.608 Y106.392 E0.01286
G1 X106.392 Y113.608 E0.21738
G1 X106.995 Y113.608 E0.01286
G1 X114.212 Y106.392 E0.21738
G1 X114.816 Y106.392 E0.01286
G1 X107.599 Y113.608 E0.21738
G1 X108.203 Y113.608 E0.01286
G1 X115.420 Y106.392 E0.21738
G1 X116.023 Y106.392 E0.01286
G1 X108.807 Y113.608 E0.21738
G1 X109.410 Y113.608 E0.01286
G1 X116.627 Y106.392 E0.21738
G1 X117.231 Y106.392 E0.01286
G1 X110.014 Y113.608 E0.21738
G1 X110.618 Y113.608 E0.01286
G1 X117.835 Y106.392 E0.21738
G1 X118.438 Y106.392 E0.01286
G1 X111.222 Y113.608 E0.21738
G1 X111.825 Y113.608 E0.01286
G1 X119.042 Y106.392 E0.21738
G1 X119.646 Y106.392 E0.01286
G1 X112.429 Y113.608 E0.21738
G1 X113.033 Y113.608 E0.01286
G1 X120.250 Y106.392 E0.21738
G1 X120.853 Y106.392 E0.01286
G1 X113.637 Y113.608 E0.21738
G1 X114.240 Y113.608 E0.01286
G1 X121.457 Y106.392 E0.21738
G1 X122.061 Y106.392 E0.01286
G1 X114.844 Y113.608 E0.21738
G1 X115.448 Y113.608 E0.01286
G1 X122.665 Y106.392 E0.21738
G1 X123.268 Y106.392 E0.01286
G1 X116.052 Y113.608 E0.21738
G1 X116.655 Y113.608 E0.01286
G1 X123.872 Y106.392 E0.21738
G1 X124.476 Y106.392 E0.01286
G1 X117.259 Y113.608 E0.21738
G1 X117.863 Y113.608 E0.01286
G1 X125.080 Y106.392 E0.21738
G1 X125.683 Y106.392 E0.01286
G1 X118.467 Y113.608 E0.21738
G1 X119.071 Y113.608 E0.01286
G1 X126.287 Y106.392 E0.21738
G1 X126.891 Y106.392 E0.01286
G1 X119.674 Y113.608 E0.21738
G1 X120.278 Y113.608 E0.01286
G1 X127.495 Y106.392 E0.21738
G1 X128.098 Y106.392 E0.01286
G1 X120.882 Y113.608 E0.21738
G1 X121.486 Y113.608 E0.01286
G1 X128.608 Y106.486 E0.21455
G1 X128.608 Y107.089 E0.01286
G1 X122.089 Y113.608 E0.19636
G1 X122.693 Y113.608 E0.01286
G1 X128.608 Y107.693 E0.17818
G1 X128.608 Y108.297 E0.01286
G1 X123.297 Y113.608 E0.15999
G1 X123.901 Y113.608 E0.01286
G1 X128.608 Y108.901 E0.14181
G1 X128.608 Y109.504 E0.01286
G1 X124.504 Y113.608 E0.12362
G1 X125.108 Y113.608 E0.01286
G1 X128.608 Y110.108 E0.10543
G1 X128.608 Y110.712 E0.01286
