; generated by PrusaSlicer 2.2.0+ on 2021-01-22 at 10:18:34 UTC

; 

; external perimeters extrusion width = 0.45mm
; perimeters extrusion width = 0.45mm
; infill extrusion width = 0.45mm
; solid infill extrusion width = 0.45mm
; top infill extrusion width = 0.40mm
; support material extrusion width = 0.35mm
; first layer extrusion width = 0.42mm

M201 X500 Y500 Z100 E5000 ; sets maximum accelerations, mm/sec^2
M203 X500 Y500 Z10 E60 ; sets maximum feedrates, mm/sec
M204 P500 R1000 T500 ; sets acceleration (P, T) and retract acceleration (R), mm/sec^2
M205 X8.00 Y8.00 Z0.40 E5.00 ; sets the jerk limits, mm/sec
M205 S0 T0 ; sets the minimum extruding and travel feed rate, mm/sec
M107
M190 S50 ; set bed temperature and wait for it to be reached
M104 S220 ; set temperature
; Ender 3 Custom Start G-code
G92 E0 ; Reset Extruder
G91 ; Relative positioning
G1 Z5 ; move 10 mm up
G90 ;Absolute positionning
G28 ; Home all axes
G29 ; Level Bed
G1 Z2.0 F3000 ; Move Z Axis up little to prevent scratching of Heat Bed
G1 X0.1 Y20 Z0.3 F5000.0 ; Move to start position
G1 X0.1 Y200.0 Z0.3 F1500.0 E15 ; Draw the first line
G1 X0.4 Y200.0 Z0.3 F5000.0 ; Move to side a little
G1 X0.4 Y20 Z0.3 F1500.0 E30 ; Draw the second line
G92 E0 ; Reset Extruder
G1 Z2.0 F3000 ; Move Z Axis up little to prevent scratching of Heat Bed
G1 X5 Y20 Z0.3 F5000.0 ; Move over to prevent blob squish
M109 S220 ; set temperature and wait for it to be reached
G21 ; set units to millimeters
G90 ; use absolute coordinates
M83 ; use relative distances for extrusion
; Filament gcode
;BEFORE_LAYER_CHANGE
;0.35


G1 E-5.00000 F3600.00000
G1 Z0.350 F7800.000
;AFTER_LAYER_CHANGE
;0.35
G1 X86.340 Y110.705
G1 E5.00000 F2400.00000
G1 F1800.000
G1 X87.505 Y109.838 E0.07292
G1 X88.838 Y109.258 E0.07292
G1 X89.661 Y109.066 E0.04244
G1 X90.503 Y108.986 E0.04244
G1 X98.280 Y108.983 E0.39028
G1 X129.619 Y109.146 E1.57281
G1 X130.661 Y109.283 E0.05272
G1 X131.665 Y109.590 E0.05272
G1 X132.605 Y110.059 E0.05272
G1 X133.455 Y110.676 E0.05272
G1 X134.495 Y111.820 E0.07757
G1 X135.227 Y113.182 E0.07757
G1 X136.633 Y117.897 E0.24694
G1 X136.838 Y119.354 E0.07385
G1 X136.845 Y128.537 E0.46087
G1 X136.776 Y129.565 E0.05169
G1 X135.458 Y137.322 E0.39486
G1 X134.937 Y138.678 E0.07292
G1 X134.121 Y139.880 E0.07292
G1 X133.138 Y140.802 E0.06764
G1 X131.987 Y141.493 E0.06733
G1 X130.712 Y141.928 E0.06764
G1 X129.379 Y142.083 E0.06733
G1 X96.180 Y142.084 E1.66614
G1 X90.433 Y141.923 E0.28850
G1 X89.378 Y141.792 E0.05334
G1 X88.355 Y141.485 E0.05365
G1 X87.402 Y141.012 E0.05334
G1 X86.542 Y140.388 E0.05334
G1 X85.899 Y139.748 E0.04556
G1 X85.354 Y139.022 E0.04556
G1 X84.918 Y138.226 E0.04556
G1 X84.600 Y137.375 E0.04556
G1 X83.261 Y129.814 E0.38538
G1 X83.169 Y128.915 E0.04535
G1 X83.192 Y118.872 E0.50403
G1 X83.379 Y117.851 E0.05210
G1 X84.742 Y113.110 E0.24756
G1 X85.402 Y111.815 E0.07292
G1 X86.301 Y110.751 E0.06991
G1 E-3.50000 F3600.00000
G1 F6240.000
G1 X87.505 Y109.838 E-0.82841
G1 X88.504 Y109.404 E-0.59659
G1 E-0.07500 F3600.00000
G1 X90.686 Y115.328 F7800.000
G1 E5.00000 F2400.00000
G1 F1800.000
G1 X90.686 Y119.103 E0.18943
G1 X91.376 Y119.103 E0.03462
G1 X91.376 Y115.483 E0.18164
G1 X92.066 Y115.483 E0.03462
G1 X92.066 Y119.258 E0.18943
G1 E-3.50000 F3600.00000
G1 F6240.000
G1 X92.066 Y116.658 E-1.42500
G1 E-0.07500 F3600.00000
G1 X90.686 Y123.939 F7800.000
G1 E5.00000 F2400.00000
G1 F1800.000
G1 X90.686 Y125.906 E0.09872
G1 X91.376 Y125.907 E0.03462
G1 X91.376 Y124.093 E0.09107
G1 X92.066 Y124.092 E0.03462
G1 X92.066 Y126.063 E0.09892
G1 E-3.50000 F3600.00000
G1 F6240.000
G1 X92.066 Y124.092 E-1.08025
G1 X91.437 Y124.093 E-0.34475
G1 E-0.07500 F3600.00000
G1 X90.686 Y130.582 F7800.000
G1 E5.00000 F2400.00000
G1 F1800.000
G1 X90.686 Y135.584 E0.25103
G1 X91.376 Y135.584 E0.03462
G1 X91.376 Y130.892 E0.23546
G1 X92.066 Y130.897 E0.03462
G1 X92.066 Y135.584 E0.23518
G1 X92.756 Y135.584 E0.03462
G1 X92.756 Y115.483 E1.00876
G1 X93.445 Y115.483 E0.03462
G1 X93.445 Y135.584 E1.00876
G1 X94.135 Y135.584 E0.03462
G1 X94.135 Y115.483 E1.00876
G1 X94.825 Y115.483 E0.03462
G1 X94.825 Y135.584 E1.00876
G1 X95.515 Y135.584 E0.03462
G1 X95.515 Y115.483 E1.00876
G1 X96.204 Y115.483 E0.03462
G1 X96.204 Y135.739 E1.01655
G1 X98.274 Y135.739 F7800.000
G1 F1800.000
G1 X98.274 Y130.897 E0.24297
G1 X97.584 Y130.897 E0.03462
G1 X97.584 Y135.584 E0.23518
G1 X96.894 Y135.584 E0.03462
G1 X96.894 Y130.897 E0.23518
G1 X96.803 Y130.897 E0.00457
G1 X96.570 Y130.664 E0.01654
G1 X96.567 Y125.000 E0.28428
G1 X96.570 Y119.336 E0.28426
G1 X96.803 Y119.103 E0.01654
G1 X96.894 Y119.103 E0.00457
G1 X96.894 Y115.483 E0.18164
G1 X97.584 Y115.483 E0.03462
G1 X97.584 Y119.103 E0.18164
G1 X98.274 Y119.103 E0.03462
G1 X98.274 Y115.328 E0.18943
G1 E-3.50000 F3600.00000
G1 F6240.000
G1 X98.274 Y117.928 E-1.42500
G1 E-0.07500 F3600.00000
G1 X98.274 Y123.992 F7800.000
G1 E5.00000 F2400.00000
G1 F1800.000
G1 X98.274 Y126.008 E0.10114
G1 E-3.50000 F3600.00000
G1 F6240.000
G1 X98.274 Y123.992 E-1.10454
G1 E-0.39546 F3600.00000
G1 X123.106 Y135.739 F7800.000
G1 E5.00000 F2400.00000
G1 F1800.000
G1 X123.106 Y130.897 E0.24297
G1 X122.416 Y130.897 E0.03462
G1 X122.416 Y135.584 E0.23518
G1 X121.726 Y135.584 E0.03462
G1 X121.726 Y130.742 E0.24297
G1 E-3.50000 F3600.00000
G1 F6240.000
G1 X121.726 Y133.342 E-1.42500
G1 E-0.07500 F3600.00000
G1 X121.726 Y126.008 F7800.000
G1 E5.00000 F2400.00000
G1 F1800.000
G1 X121.726 Y123.992 E0.10114
G1 E-3.50000 F3600.00000
G1 F6240.000
G1 X121.726 Y126.008 E-1.10454
G1 E-0.39546 F3600.00000
G1 X121.726 Y119.258 F7800.000
G1 E5.00000 F2400.00000
G1 F1800.000
G1 X121.726 Y115.483 E0.18943
G1 X122.416 Y115.483 E0.03462
G1 X122.416 Y119.103 E0.18164
G1 X123.106 Y119.103 E0.03462
G1 X123.106 Y115.483 E0.18164
G1 X123.796 Y115.483 E0.03462
G1 X123.796 Y135.584 E1.00876
G1 X124.485 Y135.584 E0.03462
G1 X124.485 Y115.483 E1.00876
G1 X125.175 Y115.483 E0.03462
G1 X125.175 Y135.584 E1.00876
G1 X125.865 Y135.584 E0.03462
G1 X125.865 Y115.483 E1.00876
G1 X126.555 Y115.483 E0.03462
G1 X126.555 Y135.584 E1.00876
G1 X127.244 Y135.584 E0.03462
G1 X127.244 Y115.483 E1.00876
G1 X127.934 Y115.483 E0.03462
G1 X127.934 Y119.103 E0.18164
G1 X128.624 Y119.103 E0.03462
G1 X128.624 Y115.483 E0.18164
G1 X129.314 Y115.483 E0.03462
G1 X129.314 Y119.258 E0.18943
G1 E-3.50000 F3600.00000
G1 F6240.000
G1 X129.314 Y116.658 E-1.42500
G1 E-0.07500 F3600.00000
G1 X129.314 Y123.939 F7800.000
G1 E5.00000 F2400.00000
G1 F1800.000
G1 X129.314 Y125.906 E0.09872
G1 X128.624 Y125.907 E0.03462
G1 X128.624 Y124.093 E0.09107
G1 X127.934 Y124.092 E0.03462
G1 X127.934 Y125.908 E0.09113
G1 X127.801 Y125.908 E0.00668
G1 X127.568 Y126.141 E0.01654
G1 X127.570 Y130.664 E0.22700
G1 X127.803 Y130.897 E0.01654
G1 X127.934 Y130.897 E0.00657
G1 X127.934 Y135.584 E0.23518
G1 X128.624 Y135.584 E0.03462
G1 X128.624 Y130.891 E0.23551
G1 X128.828 Y130.874 E0.01027
G1 X129.314 Y130.750 E0.02516
G1 X129.314 Y135.739 E0.25034
G1 E-3.50000 F3600.00000
G1 F6240.000
G1 X129.314 Y133.139 E-1.42500
G1 E-0.07500 F3600.00000
G1 X90.933 Y128.992 F7800.000
G1 E5.00000 F2400.00000
G1 F1800.000
G1 X90.787 Y129.037 E0.00768
G1 X90.714 Y128.929 E0.00652
G1 X90.646 Y128.772 E0.00859
G1 X90.608 Y128.595 E0.00910
G1 X90.600 Y127.403 E0.05982
G1 X90.934 Y127.404 E0.01676
G1 X90.933 Y128.932 E0.07671
G1 X91.277 Y129.717 F7800.000
G1 F1800.000
G1 X91.122 Y129.683 E0.00800
G1 X90.903 Y129.590 E0.01192
G1 X90.709 Y129.458 E0.01177
G1 X90.542 Y129.291 E0.01185
G1 X90.410 Y129.095 E0.01185
G1 X90.316 Y128.878 E0.01188
G1 X90.265 Y128.643 E0.01208
G1 X90.255 Y128.477 E0.00833
G1 X90.255 Y127.295 E0.05933
G1 X90.488 Y127.058 E0.01668
G1 X91.279 Y127.059 E0.03969
G1 X91.277 Y129.657 E0.13038
G1 X91.622 Y130.085 F7800.000
G1 F1800.000
G1 X91.311 Y130.078 E0.01560
G1 X91.016 Y130.013 E0.01517
G1 X90.737 Y129.894 E0.01523
G1 X90.488 Y129.725 E0.01507
G1 X90.275 Y129.512 E0.01516
G1 X90.106 Y129.261 E0.01516
G1 X89.986 Y128.983 E0.01518
G1 X89.922 Y128.690 E0.01505
G1 X89.910 Y128.488 E0.01019
G1 X89.910 Y127.154 E0.06694
G1 X90.344 Y126.713 E0.03104
G1 X91.624 Y126.715 E0.06425
G1 X91.622 Y130.025 E0.16611
G1 X91.338 Y129.959 F7800.000
G1 E-3.50000 F3600.00000
G1 F6240.000
G1 X91.311 Y130.078 E-0.17275
G1 X91.016 Y130.013 E-0.16565
G1 X90.737 Y129.894 E-0.16628
G1 X90.488 Y129.725 E-0.16460
G1 X90.275 Y129.512 E-0.16551
G1 X90.106 Y129.261 E-0.16557
G1 X89.986 Y128.983 E-0.16577
G1 X89.922 Y128.690 E-0.16440
G1 X89.912 Y128.518 E-0.09446
G1 E-0.07500 F3600.00000
G1 X117.381 Y125.475 F7800.000
G1 E5.00000 F2400.00000
G1 F1800.000
G1 X117.338 Y125.000 E0.02395
G1 X117.381 Y124.525 E0.02395
G1 X117.508 Y124.065 E0.02395
G1 X117.715 Y123.635 E0.02395
G1 X117.996 Y123.249 E0.02395
G1 X118.340 Y122.919 E0.02395
G1 X118.739 Y122.656 E0.02395
G1 X119.178 Y122.469 E0.02395
G1 X119.643 Y122.362 E0.02395
G1 X120.119 Y122.341 E0.02395
G1 X120.592 Y122.405 E0.02395
G1 X121.046 Y122.553 E0.02395
G1 X121.467 Y122.779 E0.02399
G1 X121.841 Y123.083 E0.02419
G1 X122.143 Y123.466 E0.02446
G1 X122.337 Y123.908 E0.02424
G1 X122.427 Y124.357 E0.02299
G1 X122.467 Y124.787 E0.02167
G1 X122.467 Y125.213 E0.02136
G1 X122.427 Y125.643 E0.02167
G1 X122.337 Y126.092 E0.02299
G1 X122.143 Y126.534 E0.02424
G1 X121.841 Y126.917 E0.02446
G1 X121.467 Y127.221 E0.02419
G1 X121.046 Y127.447 E0.02399
G1 X120.592 Y127.595 E0.02395
G1 X120.119 Y127.659 E0.02395
G1 X119.643 Y127.638 E0.02395
G1 X119.178 Y127.531 E0.02395
G1 X118.739 Y127.344 E0.02395
G1 X118.340 Y127.081 E0.02395
G1 X117.996 Y126.751 E0.02395
G1 X117.715 Y126.365 E0.02395
G1 X117.508 Y125.935 E0.02395
G1 X117.397 Y125.533 E0.02094
G1 X117.005 Y125.340 F7800.000
G1 E-3.50000 F3600.00000
G1 F6240.000
G1 X117.338 Y125.000 E-0.29395
G1 X117.381 Y124.525 E-0.26153
G1 X117.508 Y124.065 E-0.26153
G1 X117.715 Y123.635 E-0.26153
G1 X117.996 Y123.249 E-0.26153
G1 X118.108 Y123.142 E-0.08493
G1 E-0.07500 F3600.00000
G1 X121.946 Y127.746 F7800.000
G1 E5.00000 F2400.00000
G1 F1800.000
G1 X121.937 Y129.400 E0.08301
G1 X98.064 Y129.400 E1.19807
G1 X98.057 Y127.748 E0.08293
G1 X98.681 Y128.084 E0.03559
G1 X99.254 Y128.270 E0.03019
G1 X99.850 Y128.351 E0.03018
G1 X100.450 Y128.324 E0.03018
G1 X101.037 Y128.190 E0.03018
G1 X101.589 Y127.954 E0.03018
G1 X102.091 Y127.622 E0.03018
G1 X102.526 Y127.207 E0.03018
G1 X102.879 Y126.720 E0.03018
G1 X103.140 Y126.179 E0.03018
G1 X103.300 Y125.599 E0.03018
G1 X103.354 Y125.000 E0.03018
G1 X103.300 Y124.401 E0.03018
G1 X103.140 Y123.821 E0.03018
G1 X102.879 Y123.280 E0.03018
G1 X102.526 Y122.793 E0.03018
G1 X102.091 Y122.378 E0.03018
G1 X101.589 Y122.046 E0.03018
G1 X101.037 Y121.810 E0.03018
G1 X100.450 Y121.676 E0.03018
G1 X99.850 Y121.649 E0.03018
G1 X99.254 Y121.730 E0.03018
G1 X98.681 Y121.916 E0.03019
G1 X98.057 Y122.252 E0.03559
G1 X98.064 Y120.600 E0.08293
G1 X121.936 Y120.600 E1.19803
G1 X121.945 Y122.254 E0.08300
G1 X121.319 Y121.916 E0.03573
G1 X120.746 Y121.730 E0.03019
G1 X120.150 Y121.649 E0.03018
G1 X119.550 Y121.676 E0.03018
G1 X118.963 Y121.810 E0.03018
G1 X118.411 Y122.046 E0.03018
G1 X117.909 Y122.378 E0.03018
G1 X117.474 Y122.793 E0.03018
G1 X117.121 Y123.280 E0.03018
G1 X116.860 Y123.821 E0.03018
G1 X116.700 Y124.401 E0.03018
G1 X116.646 Y125.000 E0.03018
G1 X116.700 Y125.599 E0.03018
G1 X116.860 Y126.179 E0.03018
G1 X117.121 Y126.720 E0.03018
G1 X117.474 Y127.207 E0.03018
G1 X117.909 Y127.622 E0.03018
G1 X118.411 Y127.954 E0.03018
G1 X118.963 Y128.190 E0.03018
G1 X119.550 Y128.324 E0.03018
G1 X120.150 Y128.351 E0.03018
G1 X120.746 Y128.270 E0.03018
G1 X121.319 Y128.084 E0.03019
G1 X121.893 Y127.775 E0.03274
G1 X122.294 Y127.125 F7800.000
G1 F1800.000
G1 X122.280 Y129.745 E0.13148
G1 X97.721 Y129.745 E1.23252
G1 X97.710 Y127.129 E0.13127
G1 X97.849 Y127.081 E0.00741
G1 X97.912 Y127.160 E0.00508
G1 X98.341 Y127.509 E0.02774
G1 X98.818 Y127.766 E0.02719
G1 X99.331 Y127.933 E0.02707
G1 X99.865 Y128.005 E0.02706
G1 X100.404 Y127.981 E0.02706
G1 X100.930 Y127.861 E0.02706
G1 X101.425 Y127.649 E0.02706
G1 X101.875 Y127.352 E0.02706
G1 X102.265 Y126.979 E0.02706
G1 X102.582 Y126.543 E0.02706
G1 X102.816 Y126.057 E0.02706
G1 X102.960 Y125.537 E0.02706
G1 X103.008 Y125.000 E0.02706
G1 X102.960 Y124.463 E0.02706
G1 X102.816 Y123.943 E0.02706
G1 X102.582 Y123.457 E0.02706
G1 X102.265 Y123.021 E0.02706
G1 X101.875 Y122.648 E0.02706
G1 X101.425 Y122.351 E0.02706
G1 X100.930 Y122.139 E0.02706
G1 X100.404 Y122.019 E0.02706
G1 X99.865 Y121.995 E0.02706
G1 X99.331 Y122.067 E0.02706
G1 X98.818 Y122.234 E0.02707
G1 X98.341 Y122.491 E0.02719
G1 X97.912 Y122.840 E0.02774
G1 X97.849 Y122.919 E0.00508
G1 X97.710 Y122.871 E0.00741
G1 X97.721 Y120.255 E0.13127
G1 X122.279 Y120.255 E1.23248
G1 X122.294 Y122.875 E0.13148
G1 X122.154 Y122.923 E0.00741
G1 X122.088 Y122.840 E0.00537
G1 X121.659 Y122.491 E0.02773
G1 X121.182 Y122.234 E0.02719
G1 X120.669 Y122.067 E0.02707
G1 X120.135 Y121.995 E0.02706
G1 X119.812 Y122.010 E0.01624
G1 X119.596 Y122.019 E0.01083
G1 X119.070 Y122.139 E0.02706
G1 X118.575 Y122.351 E0.02706
G1 X118.125 Y122.648 E0.02706
G1 X117.735 Y123.021 E0.02706
G1 X117.418 Y123.457 E0.02706
G1 X117.184 Y123.943 E0.02706
G1 X117.040 Y124.463 E0.02706
G1 X116.992 Y125.000 E0.02706
G1 X117.040 Y125.537 E0.02706
G1 X117.184 Y126.057 E0.02706
G1 X117.418 Y126.543 E0.02706
G1 X117.735 Y126.979 E0.02706
G1 X118.125 Y127.352 E0.02706
G1 X118.575 Y127.649 E0.02706
G1 X119.070 Y127.861 E0.02706
G1 X119.596 Y127.981 E0.02706
G1 X120.135 Y128.005 E0.02706
G1 X120.669 Y127.933 E0.02706
G1 X121.182 Y127.766 E0.02707
G1 X121.659 Y127.509 E0.02719
G1 X122.088 Y127.160 E0.02773
G1 X122.155 Y127.076 E0.00537
G1 X122.237 Y127.105 E0.00440
G1 E-3.50000 F3600.00000
G1 F6240.000
G1 X122.279 Y129.705 E-1.42500
G1 E-0.07500 F3600.00000
G1 X102.619 Y125.475 F7800.000
G1 E5.00000 F2400.00000
G1 F1800.000
G1 X102.492 Y125.935 E0.02395
G1 X102.285 Y126.365 E0.02395
G1 X102.004 Y126.751 E0.02395
G1 X101.660 Y127.081 E0.02395
G1 X101.261 Y127.344 E0.02395
G1 X100.822 Y127.531 E0.02395
G1 X100.357 Y127.638 E0.02395
G1 X99.881 Y127.659 E0.02395
G1 X99.408 Y127.595 E0.02395
G1 X98.954 Y127.447 E0.02395
G1 X98.533 Y127.221 E0.02399
G1 X98.159 Y126.917 E0.02419
G1 X97.857 Y126.534 E0.02446
G1 X97.664 Y126.091 E0.02423
G1 X97.574 Y125.642 E0.02298
G1 X97.534 Y125.213 E0.02166
G1 X97.534 Y124.787 E0.02135
G1 X97.574 Y124.358 E0.02166
G1 X97.664 Y123.909 E0.02298
G1 X97.857 Y123.466 E0.02423
G1 X98.159 Y123.083 E0.02446
G1 X98.533 Y122.779 E0.02419
G1 X98.954 Y122.553 E0.02399
G1 X99.408 Y122.405 E0.02395
G1 X99.881 Y122.341 E0.02395
G1 X100.357 Y122.362 E0.02395
G1 X100.822 Y122.469 E0.02395
G1 X101.261 Y122.656 E0.02395
G1 X101.660 Y122.919 E0.02395
G1 X102.004 Y123.249 E0.02395
G1 X102.285 Y123.635 E0.02395
G1 X102.492 Y124.065 E0.02395
G1 X102.619 Y124.525 E0.02395
G1 X102.662 Y125.000 E0.02395
G1 X102.624 Y125.415 E0.02094
G1 X102.924 Y125.734 F7800.000
G1 E-3.50000 F3600.00000
G1 F6240.000
G1 X102.492 Y125.935 E-0.29395
G1 X102.285 Y126.365 E-0.26153
G1 X102.004 Y126.751 E-0.26153
G1 X101.660 Y127.081 E-0.26153
G1 X101.261 Y127.344 E-0.26153
G1 X101.119 Y127.405 E-0.08493
G1 E-0.07500 F3600.00000
G1 X97.377 Y130.090 F7800.000
G1 E5.00000 F2400.00000
G1 F1800.000
G1 X97.364 Y126.911 E0.15955
G1 X97.326 Y126.418 E0.02478
G1 X97.207 Y125.463 E0.04833
G1 X97.189 Y125.000 E0.02324
G1 X97.207 Y124.537 E0.02324
G1 X97.326 Y123.582 E0.04833
G1 X97.364 Y123.089 E0.02478
G1 X97.377 Y119.910 E0.15955
G1 X122.622 Y119.910 E1.26692
G1 X122.640 Y123.139 E0.16207
G1 X122.680 Y123.619 E0.02416
G1 X122.795 Y124.549 E0.04704
G1 X122.812 Y125.000 E0.02263
G1 X122.795 Y125.451 E0.02263
G1 X122.680 Y126.381 E0.04704
G1 X122.640 Y126.861 E0.02416
G1 X122.623 Y130.090 E0.16207
G1 X97.437 Y130.090 E1.26396
G1 X97.561 Y129.735 F7800.000
G1 X98.868 Y129.297
G1 F1800.000
G1 X98.320 Y128.749 E0.03902
G1 X98.319 Y128.477 E0.01374
G1 X98.487 Y128.548 E0.00920
G1 X98.523 Y128.463 E0.00469
G1 X99.202 Y129.142 E0.04838
G1 X99.692 Y129.142 E0.02469
G1 X99.015 Y128.465 E0.04826
G1 X99.196 Y128.523 E0.00959
G1 X99.621 Y128.581 E0.02163
G1 X100.182 Y129.142 E0.03996
