; generated by PrusaSlicer 2.2.0+ on 2021-01-22 at 10:18:32 UTC

; 

; external perimeters extrusion width = 0.45mm
; perimeters extrusion width = 0.45mm
; infill extrusion width = 0.45mm
; solid infill extrusion width = 0.45mm
; top infill extrusion width = 0.40mm
; support material extrusion width = 0.35mm
; first layer extrusion width = 0.42mm

M201 X500 Y500 Z100 E5000 ; sets maximum accelerations, mm/sec^2
M203 X500 Y500 Z10 E60 ; sets maximum feedrates, mm/sec
M204 P500 R1000 T500 ; sets acceleration (P, T) and retract acceleration (R), mm/sec^2
M205 X8.00 Y8.00 Z0.40 E5.00 ; sets the jerk limits, mm/sec
M205 S0 T0 ; sets the minimum extruding and travel feed rate, mm/sec
M107
M190 S50 ; set bed temperature and wait for it to be reached
M104 S220 ; set temperature
; Ender 3 Custom Start G-code
G92 E0 ; Reset Extruder
G91 ; Relative positioning
G1 Z5 ; move 10 mm up
G90 ;Absolute positionning
G28 ; Home all axes
G29 ; Level Bed
G1 Z2.0 F3000 ; Move Z Axis up little to prevent scratching of Heat Bed
G1 X0.1 Y20 Z0.3 F5000.0 ; Move to start position
G1 X0.1 Y200.0 Z0.3 F1500.0 E15 ; Draw the first line
G1 X0.4 Y200.0 Z0.3 F5000.0 ; Move to side a little
G1 X0.4 Y20 Z0.3 F1500.0 E30 ; Draw the second line
G92 E0 ; Reset Extruder
G1 Z2.0 F3000 ; Move Z Axis up little to prevent scratching of Heat Bed
G1 X5 Y20 Z0.3 F5000.0 ; Move over to prevent blob squish
M109 S220 ; set temperature and wait for it to be reached
G21 ; set units to millimeters
G90 ; use absolute coordinates
M83 ; use relative distances for extrusion
; Filament gcode
;BEFORE_LAYER_CHANGE
;0.35


G1 E-5.00000 F3600.00000
G1 Z0.350 F7800.000
;AFTER_LAYER_CHANGE
;0.35
G1 X100.384 Y100.646
G1 E5.00000 F2400.00000
G1 F1800.000
G1 X101.377 Y99.791 E0.06578
G1 X102.525 Y99.158 E0.06578
G1 X103.778 Y98.774 E0.06578
G1 X104.934 Y98.655 E0.05832
G1 X115.006 Y98.655 E0.50547
G1 X116.035 Y98.740 E0.05179
G1 X117.036 Y98.991 E0.05179
G1 X117.983 Y99.400 E0.05179
G1 X118.851 Y99.958 E0.05179
G1 X119.618 Y100.648 E0.05179
G1 X120.262 Y101.454 E0.05179
G1 X120.767 Y102.354 E0.05179
G1 X121.118 Y103.318 E0.05147
G1 X121.344 Y104.885 E0.07943
G1 X121.338 Y115.299 E0.52264
G1 X121.065 Y116.864 E0.07974
G1 X120.412 Y118.312 E0.07974
G1 X119.525 Y119.448 E0.07230
G1 X118.405 Y120.354 E0.07230
G1 X117.109 Y120.984 E0.07230
G1 X115.705 Y121.306 E0.07230
G1 X104.596 Y121.332 E0.55754
G1 X103.089 Y121.050 E0.07695
G1 X101.688 Y120.412 E0.07726
G1 X100.552 Y119.525 E0.07230
G1 X99.646 Y118.405 E0.07230
G1 X99.016 Y117.109 E0.07230
G1 X98.694 Y115.705 E0.07230
G1 X98.668 Y104.596 E0.55754
G1 X98.950 Y103.089 E0.07695
G1 X99.588 Y101.688 E0.07726
G1 X100.348 Y100.694 E0.06277
G1 E-3.50000 F3600.00000
G1 F6240.000
G1 X101.377 Y99.791 E-0.75059
G1 X102.455 Y99.196 E-0.67441
G1 E-0.07500 F3600.00000
G1 X113.900 Y113.900 F7800.000
G1 E5.00000 F2400.00000
G1 F1800.000
G1 X106.100 Y113.900 E0.39147
G1 X106.100 Y106.100 E0.39147
G1 X113.900 Y106.100 E0.39147
G1 X113.900 Y113.840 E0.38846
G1 X114.245 Y114.245 F7800.000
G1 F1800.000
G1 X105.755 Y114.245 E0.42609
G1 X105.755 Y105.755 E0.42609
G1 X114.245 Y105.755 E0.42609
G1 X114.245 Y114.185 E0.42308
G1 X114.590 Y114.590 F7800.000
G1 F1800.000
G1 X105.410 Y114.590 E0.46071
G1 X105.410 Y105.410 E0.46071
G1 X114.590 Y105.410 E0.46071
G1 X114.590 Y114.530 E0.45770
G1 X114.204 Y114.486 F7800.000
G1 E-3.50000 F3600.00000
G1 F6240.000
G1 X111.990 Y114.547 E-1.42500
G1 E-0.07500 F3600.00000
G1 X106.203 Y113.093 F7800.000
G1 E5.00000 F2400.00000
G1 F1800.000
G1 X106.752 Y113.642 E0.03928
G1 X107.244 Y113.642 E0.02492
G1 X106.358 Y112.756 E0.06340
G1 X106.358 Y112.264 E0.02492
G1 X107.736 Y113.642 E0.09865
G1 X108.228 Y113.642 E0.02492
G1 X106.358 Y111.772 E0.13389
G1 X106.358 Y111.280 E0.02492
G1 X108.720 Y113.642 E0.16913
G1 X109.212 Y113.642 E0.02492
G1 X106.358 Y110.788 E0.20437
G1 X106.358 Y110.296 E0.02492
G1 X109.704 Y113.642 E0.23961
G1 X110.197 Y113.642 E0.02492
G1 X106.358 Y109.803 E0.27486
G1 X106.358 Y109.311 E0.02492
G1 X110.689 Y113.642 E0.31010
G1 X111.181 Y113.642 E0.02492
G1 X106.358 Y108.819 E0.34534
G1 X106.358 Y108.327 E0.02492
G1 X111.673 Y113.642 E0.38058
G1 X112.165 Y113.642 E0.02492
G1 X106.358 Y107.835 E0.41582
G1 X106.358 Y107.343 E0.02492
G1 X112.657 Y113.642 E0.45107
G1 X113.149 Y113.642 E0.02492
G1 X106.358 Y106.851 E0.48631
G1 X106.358 Y106.358 E0.02492
G1 X113.642 Y113.642 E0.52155
G1 X113.642 Y113.149 E0.02492
G1 X106.851 Y106.358 E0.48632
G1 X107.343 Y106.358 E0.02492
G1 X113.642 Y112.657 E0.45107
G1 X113.642 Y112.165 E0.02492
G1 X107.835 Y106.358 E0.41583
G1 X108.327 Y106.358 E0.02492
G1 X113.642 Y111.673 E0.38059
G1 X113.642 Y111.181 E0.02492
G1 X108.819 Y106.358 E0.34535
G1 X109.311 Y106.358 E0.02492
G1 X113.642 Y110.689 E0.31011
G1 X113.642 Y110.197 E0.02492
G1 X109.803 Y106.358 E0.27486
G1 X110.295 Y106.358 E0.02492
G1 X113.642 Y109.705 E0.23962
G1 X113.642 Y109.212 E0.02492
G1 X110.788 Y106.358 E0.20438
G1 X111.280 Y106.358 E0.02492
G1 X113.642 Y108.720 E0.16914
G1 X113.642 Y108.228 E0.02492
G1 X111.772 Y106.358 E0.13390
G1 X112.264 Y106.358 E0.02492
G1 X113.642 Y107.736 E0.09865
G1 X113.642 Y107.244 E0.02492
G1 X112.756 Y106.358 E0.06341
G1 X113.248 Y106.358 E0.02492
G1 X113.797 Y106.907 E0.03928
;BEFORE_LAYER_CHANGE
;0.47


G1 E-3.50000 F3600.00000
G1 F6240.000
G1 X113.248 Y106.358 E-0.42520
G1 X112.756 Y106.358 E-0.26972
G1 X113.642 Y107.244 E-0.68635
G1 X113.642 Y107.324 E-0.04372
G1 E-0.07500 F3600.00000
G1 Z0.470 F7800.000
;AFTER_LAYER_CHANGE
;0.47
G1 X113.927 Y113.927
G1 E5.00000 F2400.00000
G1 F900.000
G1 X106.073 Y113.927 E0.16622
G1 X106.073 Y106.073 E0.16622
G1 X113.927 Y106.073 E0.16622
G1 X113.927 Y113.867 E0.16495
G1 X114.351 Y114.351 F7800.000
G1 F900.000
G1 X105.649 Y114.351 E0.18417
G1 X105.649 Y105.649 E0.18417
G1 X114.351 Y105.649 E0.18417
G1 X114.351 Y114.291 E0.18290
G1 X114.775 Y114.775 F7800.000
G1 F900.000
G1 X105.225 Y114.775 E0.20213
G1 X105.225 Y105.225 E0.20213
G1 X114.775 Y105.225 E0.20213
G1 X114.775 Y114.715 E0.20086
G1 X114.389 Y114.671 F7800.000
G1 X107.075 Y106.201
G1 F1200.000
G1 X106.392 Y106.884 E0.02084
G1 X106.392 Y107.496 E0.01318
G1 X107.496 Y106.392 E0.03366
G1 X108.107 Y106.392 E0.01318
G1 X106.392 Y108.107 E0.05231
G1 X106.392 Y108.718 E0.01318
G1 X108.718 Y106.392 E0.07095
G1 X109.329 Y106.392 E0.01318
G1 X106.392 Y109.329 E0.08959
G1 X106.392 Y109.941 E0.01318
G1 X109.941 Y106.392 E0.10823
G1 X110.552 Y106.392 E0.01318
G1 X106.392 Y110.552 E0.12687
G1 X106.392 Y111.163 E0.01318
G1 X111.163 Y106.392 E0.14551
G1 X111.774 Y106.392 E0.01318
G1 X106.392 Y111.774 E0.16416
G1 X106.392 Y112.386 E0.01318
G1 X112.386 Y106.392 E0.18280
G1 X112.997 Y106.392 E0.01318
G1 X106.392 Y112.997 E0.20144
G1 X106.392 Y113.608 E0.01318
G1 X113.608 Y106.392 E0.22008
G1 X113.608 Y107.003 E0.01318
G1 X107.003 Y113.608 E0.20144
G1 X107.614 Y113.608 E0.01318
G1 X113.608 Y107.614 E0.18280
G1 X113.608 Y108.225 E0.01318
G1 X108.225 Y113.608 E0.16416
G1 X108.837 Y113.608 E0.01318
G1 X113.608 Y108.837 E0.14552
G1 X113.608 Y109.448 E0.01318
G1 X109.448 Y113.608 E0.12688
G1 X110.059 Y113.608 E0.01318
G1 X113.608 Y110.059 E0.10824
G1 X113.608 Y110.671 E0.01318
G1 X110.671 Y113.608 E0.08959
G1 X111.282 Y113.608 E0.01318
G1 X113.608 Y111.282 E0.07095
G1 X113.608 Y111.893 E0.01318
G1 X111.893 Y113.608 E0.05231
G1 X112.504 Y113.608 E0.01318
G1 X113.608 Y112.504 E0.03367
G1 X113.608 Y113.116 E0.01318
G1 X112.925 Y113.799 E0.02085
;BEFORE_LAYER_CHANGE
;0.59


G1 E-3.50000 F3600.00000
G1 F6240.000
G1 X113.608 Y113.116 E-0.52989
G1 X113.608 Y112.504 E-0.33502
G1 X112.886 Y113.227 E-0.56008
G1 E-0.07500 F3600.00000
G1 Z0.590 F7800.000
;AFTER_LAYER_CHANGE
;0.59
G1 X113.927 Y113.927
G1 E5.00000 F2400.00000
G1 F900.000
G1 X106.073 Y113.927 E0.16622
G1 X106.073 Y106.073 E0.16622
G1 X113.927 Y106.073 E0.16622
G1 X113.927 Y113.867 E0.16495
G1 X114.351 Y114.351 F7800.000
G1 F900.000
G1 X105.649 Y114.351 E0.18417
G1 X105.649 Y105.649 E0.18417
G1 X114.351 Y105.649 E0.18417
G1 X114.351 Y114.291 E0.18290
G1 X114.775 Y114.775 F7800.000
G1 F900.000
G1 X105.225 Y114.775 E0.20213
G1 X105.225 Y105.225 E0.20213
G1 X114.775 Y105.225 E0.20213
G1 X114.775 Y114.715 E0.20086
G1 X114.389 Y114.671 F7800.000
G1 X106.201 Y112.925
G1 F1200.000
G1 X106.884 Y113.608 E0.02084
G1 X107.496 Y113.608 E0.01318
G1 X106.392 Y112.504 E0.03366
G1 X106.392 Y111.893 E0.01318
G1 X108.107 Y113.608 E0.05231
G1 X108.718 Y113.608 E0.01318
G1 X106.392 Y111.282 E0.07095
G1 X106.392 Y110.671 E0.01318
G1 X109.329 Y113.608 E0.08959
G1 X109.941 Y113.608 E0.01318
G1 X106.392 Y110.059 E0.10823
G1 X106.392 Y109.448 E0.01318
G1 X110.552 Y113.608 E0.12687
G1 X111.163 Y113.608 E0.01318
G1 X106.392 Y108.837 E0.14551
G1 X106.392 Y108.226 E0.01318
G1 X111.774 Y113.608 E0.16416
G1 X112.386 Y113.608 E0.01318
G1 X106.392 Y107.614 E0.18280
G1 X106.392 Y107.003 E0.01318
G1 X112.997 Y113.608 E0.20144
G1 X113.608 Y113.608 E0.01318
G1 X106.392 Y106.392 E0.22008
G1 X107.003 Y106.392 E0.01318
G1 X113.608 Y112.997 E0.20144
G1 X113.608 Y112.386 E0.01318
G1 X107.614 Y106.392 E0.18280
G1 X108.225 Y106.392 E0.01318
G1 X113.608 Y111.775 E0.16416
G1 X113.608 Y111.163 E0.01318
G1 X108.837 Y106.392 E0.14552
G1 X109.448 Y106.392 E0.01318
G1 X113.608 Y110.552 E0.12688
G1 X113.608 Y109.941 E0.01318
G1 X110.059 Y106.392 E0.10824
G1 X110.671 Y106.392 E0.01318
G1 X113.608 Y109.329 E0.08959
G1 X113.608 Y108.718 E0.01318
G1 X111.282 Y106.392 E0.07095
G1 X111.893 Y106.392 E0.01318
G1 X113.608 Y108.107 E0.05231
G1 X113.608 Y107.496 E0.01318
G1 X112.504 Y106.392 E0.03367
G1 X113.116 Y106.392 E0.01318
G1 X113.799 Y107.075 E0.02085
M106 S224.4
;BEFORE_LAYER_CHANGE
;0.71


G1 E-3.50000 F3600.00000
G1 F6240.000
G1 X113.116 Y106.392 E-0.52989
G1 X112.504 Y106.392 E-0.33502
G1 X113.227 Y107.114 E-0.56008
G1 E-0.07500 F3600.00000
G1 Z0.710 F7800.000
;AFTER_LAYER_CHANGE
;0.71
G1 X113.927 Y113.927
G1 E5.00000 F2400.00000
G1 F900.000
G1 X106.073 Y113.927 E0.16622
G1 X106.073 Y106.073 E0.16622
G1 X113.927 Y106.073 E0.16622
G1 X113.927 Y113.867 E0.16495
G1 X114.351 Y114.351 F7800.000
G1 F900.000
G1 X105.649 Y114.351 E0.18417
G1 X105.649 Y105.649 E0.18417
G1 X114.351 Y105.649 E0.18417
G1 X114.351 Y114.291 E0.18290
G1 X114.775 Y114.775 F7800.000
G1 F900.000
G1 X105.225 Y114.775 E0.20213
G1 X105.225 Y105.225 E0.20213
G1 X114.775 Y105.225 E0.20213
G1 X114.775 Y114.715 E0.20086
G1 X114.389 Y114.671 F7800.000
G1 X107.075 Y106.201
G1 F1200.000
G1 X106.392 Y106.884 E0.02085
G1 X106.392 Y107.496 E0.01318
G1 X107.496 Y106.392 E0.03366
G1 X108.107 Y106.392 E0.01318
G1 X106.392 Y108.107 E0.05231
G1 X106.392 Y108.718 E0.01318
G1 X108.718 Y106.392 E0.07095
G1 X109.329 Y106.392 E0.01318
G1 X106.392 Y109.329 E0.08959
G1 X106.392 Y109.941 E0.01318
G1 X109.941 Y106.392 E0.10823
G1 X110.552 Y106.392 E0.01318
G1 X106.392 Y110.552 E0.12687
G1 X106.392 Y111.163 E0.01318
G1 X111.163 Y106.392 E0.14551
G1 X111.774 Y106.392 E0.01318
G1 X106.392 Y111.774 E0.16416
G1 X106.392 Y112.386 E0.01318
G1 X112.386 Y106.392 E0.18280
G1 X112.997 Y106.392 E0.01318
G1 X106.392 Y112.997 E0.20144
G1 X106.392 Y113.608 E0.01318
G1 X113.608 Y106.392 E0.22008
G1 X113.608 Y107.003 E0.01318
G1 X107.003 Y113.608 E0.20144
G1 X107.614 Y113.608 E0.01318
G1 X113.608 Y107.614 E0.18280
G1 X113.608 Y108.225 E0.01318
G1 X108.225 Y113.608 E0.16416
G1 X108.837 Y113.608 E0.01318
G1 X113.608 Y108.837 E0.14552
G1 X113.608 Y109.448 E0.01318
G1 X109.448 Y113.608 E0.12688
G1 X110.059 Y113.608 E0.01318
G1 X113.608 Y110.059 E0.10823
G1 X113.608 Y110.671 E0.01318
G1 X110.671 Y113.608 E0.08959
G1 X111.282 Y113.608 E0.01318
G1 X113.608 Y111.282 E0.07095
G1 X113.608 Y111.893 E0.01318
G1 X111.893 Y113.608 E0.05231
G1 X112.504 Y113.608 E0.01318
G1 X113.608 Y112.504 E0.03367
G1 X113.608 Y113.116 E0.01318
G1 X112.925 Y113.799 E0.02085
;BEFORE_LAYER_CHANGE
;0.83


G1 E-3.50000 F3600.00000
G1 F6240.000
G1 X113.608 Y113.116 E-0.52989
G1 X113.608 Y112.504 E-0.33502
G1 X112.886 Y113.227 E-0.56009
G1 E-0.07500 F3600.00000
G1 Z0.830 F7800.000
;AFTER_LAYER_CHANGE
;0.83
G1 X113.927 Y113.927
G1 E5.00000 F2400.00000
G1 F900.000
G1 X106.073 Y113.927 E0.16622
G1 X106.073 Y106.073 E0.16622
G1 X113.927 Y106.073 E0.16622
G1 X113.927 Y113.867 E0.16495
G1 X114.351 Y114.351 F7800.000
G1 F900.000
G1 X105.649 Y114.351 E0.18417
G1 X105.649 Y105.649 E0.18417
G1 X114.351 Y105.649 E0.18417
G1 X114.351 Y114.291 E0.18290
G1 X114.775 Y114.775 F7800.000
G1 F900.000
G1 X105.225 Y114.775 E0.20213
G1 X105.225 Y105.225 E0.20213
G1 X114.775 Y105.225 E0.20213
G1 X114.775 Y114.715 E0.20086
G1 X114.389 Y114.671 F7800.000
G1 X106.201 Y112.925
G1 F1200.000
G1 X106.884 Y113.608 E0.02085
G1 X107.496 Y113.608 E0.01318
G1 X106.392 Y112.504 E0.03366
G1 X106.392 Y111.893 E0.01318
G1 X108.107 Y113.608 E0.05231
G1 X108.718 Y113.608 E0.01318
G1 X106.392 Y111.282 E0.07095
G1 X106.392 Y110.671 E0.01318
G1 X109.329 Y113.608 E0.08959
G1 X109.941 Y113.608 E0.01318
G1 X106.392 Y110.059 E0.10823
G1 X106.392 Y109.448 E0.01318
G1 X110.552 Y113.608 E0.12687
G1 X111.163 Y113.608 E0.01318
G1 X106.392 Y108.837 E0.14551
G1 X106.392 Y108.226 E0.01318
G1 X111.774 Y113.608 E0.16416
G1 X112.386 Y113.608 E0.01318
G1 X106.392 Y107.614 E0.18280
G1 X106.392 Y107.003 E0.01318
G1 X112.997 Y113.608 E0.20144
G1 X113.608 Y113.608 E0.01318
G1 X106.392 Y106.392 E0.22008
G1 X107.003 Y106.392 E0.01318
G1 X113.608 Y112.997 E0.20144
G1 X113.608 Y112.386 E0.01318
G1 X107.614 Y106.392 E0.18280
G1 X108.225 Y106.392 E0.01318
G1 X113.608 Y111.775 E0.16416
G1 X113.608 Y111.163 E0.01318
G1 X108.837 Y106.392 E0.14552
G1 X109.448 Y106.392 E0.01318
G1 X113.608 Y110.552 E0.12688
G1 X113.608 Y109.941 E0.01318
G1 X110.059 Y106.392 E0.10823
G1 X110.671 Y106.392 E0.01318
G1 X113.608 Y109.329 E0.08959
G1 X113.608 Y108.718 E0.01318
G1 X111.282 Y106.392 E0.07095
G1 X111.893 Y106.392 E0.01318
G1 X113.608 Y108.107 E0.05231
G1 X113.608 Y107.496 E0.01318
G1 X112.504 Y106.392 E0.03367
G1 X113.116 Y106.392 E0.01318
G1 X113.799 Y107.075 E0.02085
;BEFORE_LAYER_CHANGE
;0.95


G1 E-3.50000 F3600.00000
G1 F6240.000
G1 X113.116 Y106.392 E-0.52989
G1 X112.504 Y106.392 E-0.33502
G1 X113.227 Y107.114 E-0.56009
G1 E-0.07500 F3600.00000
G1 Z0.950 F7800.000
;AFTER_LAYER_CHANGE
;0.95
G1 X113.927 Y113.927
G1 E5.00000 F2400.00000
G1 F900.000
G1 X106.073 Y113.927 E0.16622
G1 X106.073 Y106.073 E0.16622
G1 X113.927 Y106.073 E0.16622
G1 X113.927 Y113.867 E0.16495
G1 X114.351 Y114.351 F7800.000
G1 F900.000
G1 X105.649 Y114.351 E0.18417
G1 X105.649 Y105.649 E0.18417
G1 X114.351 Y105.649 E0.18417
G1 X114.351 Y114.291 E0.18290
G1 X114.775 Y114.775 F7800.000
G1 F900.000
G1 X105.225 Y114.775 E0.20213
G1 X105.225 Y105.225 E0.20213
G1 X114.775 Y105.225 E0.20213
G1 X114.775 Y114.715 E0.20086
G1 X114.389 Y114.671 F7800.000
G1 X107.075 Y106.201
G1 F1200.000
G1 X106.392 Y106.884 E0.02085
G1 X106.392 Y107.496 E0.01318
G1 X107.496 Y106.392 E0.03366
G1 X108.107 Y106.392 E0.01318
G1 X106.392 Y108.107 E0.05231
G1 X106.392 Y108.718 E0.01318
G1 X108.718 Y106.392 E0.07095
G1 X109.329 Y106.392 E0.01318
G1 X106.392 Y109.329 E0.08959
G1 X106.392 Y109.941 E0.01318
G1 X109.941 Y106.392 E0.10823
G1 X110.552 Y106.392 E0.01318
G1 X106.392 Y110.552 E0.12687
G1 X106.392 Y111.163 E0.01318
G1 X111.163 Y106.392 E0.14551
G1 X111.774 Y106.392 E0.01318
G1 X106.392 Y111.774 E0.16416
G1 X106.392 Y112.386 E0.01318
G1 X112.386 Y106.392 E0.18280
G1 X112.997 Y106.392 E0.01318
G1 X106.392 Y112.997 E0.20144
G1 X106.392 Y113.608 E0.01318
G1 X113.608 Y106.392 E0.22008
G1 X113.608 Y107.003 E0.01318
G1 X107.003 Y113.608 E0.20144
G1 X107.614 Y113.608 E0.01318
G1 X113.608 Y107.614 E0.18280
G1 X113.608 Y108.225 E0.01318
G1 X108.225 Y113.608 E0.16416
G1 X108.837 Y113.608 E0.01318
G1 X113.608 Y108.837 E0.14552
G1 X113.608 Y109.448 E0.01318
G1 X109.448 Y113.608 E0.12688
G1 X110.059 Y113.608 E0.01318
G1 X113.608 Y110.059 E0.10823
G1 X113.608 Y110.671 E0.01318
G1 X110.671 Y113.608 E0.08959
G1 X111.282 Y113.608 E0.01318
G1 X113.608 Y111.282 E0.07095
G1 X113.608 Y111.893 E0.01318
G1 X111.893 Y113.608 E0.05231
G1 X112.504 Y113.608 E0.01318
G1 X113.608 Y112.504 E0.03367
G1 X113.608 Y113.116 E0.01318
G1 X112.925 Y113.799 E0.02085
