; generated by PrusaSlicer 2.2.0+ on 2021-01-22 at 10:18:33 UTC

; 

; external perimeters extrusion width = 0.45mm
; perimeters extrusion width = 0.45mm
; infill extrusion width = 0.45mm
; solid infill extrusion width = 0.45mm
; top infill extrusion width = 0.40mm
; support material extrusion width = 0.35mm
; first layer extrusion width = 0.42mm

M201 X500 Y500 Z100 E5000 ; sets maximum accelerations, mm/sec^2
M203 X500 Y500 Z10 E60 ; sets maximum feedrates, mm/sec
M204 P500 R1000 T500 ; sets acceleration (P, T) and retract acceleration (R), mm/sec^2
M205 X8.00 Y8.00 Z0.40 E5.00 ; sets the jerk limits, mm/sec
M205 S0 T0 ; sets the minimum extruding and travel feed rate, mm/sec
M107
M190 S50 ; set bed temperature and wait for it to be reached
M104 S220 ; set temperature
; Ender 3 Custom Start G-code
G92 E0 ; Reset Extruder
G91 ; Relative positioning
G1 Z5 ; move 10 mm up
G90 ;Absolute positionning
G28 ; Home all axes
G29 ; Level Bed
G1 Z2.0 F3000 ; Move Z Axis up little to prevent scratching of Heat Bed
G1 X0.1 Y20 Z0.3 F5000.0 ; Move to start position
G1 X0.1 Y200.0 Z0.3 F1500.0 E15 ; Draw the first line
G1 X0.4 Y200.0 Z0.3 F5000.0 ; Move to side a little
G1 X0.4 Y20 Z0.3 F1500.0 E30 ; Draw the second line
G92 E0 ; Reset Extruder
G1 Z2.0 F3000 ; Move Z Axis up little to prevent scratching of Heat Bed
G1 X5 Y20 Z0.3 F5000.0 ; Move over to prevent blob squish
M109 S220 ; set temperature and wait for it to be reached
G21 ; set units to millimeters
G90 ; use absolute coordinates
M83 ; use relative distances for extrusion
; Filament gcode
;BEFORE_LAYER_CHANGE
;0.35


G1 E-5.00000 F3600.00000
G1 Z0.350 F7800.000
;AFTER_LAYER_CHANGE
;0.35
G1 X83.191 Y82.398
G1 E5.00000 F2400.00000
G1 F1800.000
G1 X85.351 Y80.453 E0.14589
G1 X88.567 Y78.044 E0.20163
G1 X91.942 Y76.021 E0.19745
G1 X95.575 Y74.327 E0.20120
G1 X99.293 Y73.041 E0.19745
G1 X102.108 Y72.340 E0.14558
G1 X105.985 Y71.731 E0.19696
G1 X110.008 Y71.521 E0.20213
G1 X114.017 Y71.731 E0.20151
G1 X117.898 Y72.341 E0.19714
G1 X120.712 Y73.043 E0.14558
G1 X124.508 Y74.361 E0.20164
G1 X128.072 Y76.028 E0.19745
G1 X131.518 Y78.100 E0.20182
G1 X134.725 Y80.516 E0.20151
G1 X137.602 Y83.191 E0.19714
G1 X139.547 Y85.351 E0.14589
G1 X141.956 Y88.567 E0.20163
G1 X143.979 Y91.942 E0.19745
G1 X145.673 Y95.575 E0.20120
G1 X146.959 Y99.293 E0.19745
G1 X147.660 Y102.108 E0.14558
G1 X148.269 Y105.985 E0.19696
G1 X148.479 Y110.001 E0.20182
G1 X148.269 Y114.017 E0.20182
G1 X147.659 Y117.898 E0.19714
G1 X146.957 Y120.712 E0.14558
G1 X145.639 Y124.508 E0.20164
G1 X143.972 Y128.072 E0.19745
G1 X141.900 Y131.518 E0.20182
G1 X139.484 Y134.725 E0.20151
G1 X136.809 Y137.602 E0.19714
G1 X134.649 Y139.547 E0.14589
G1 X131.433 Y141.956 E0.20163
G1 X128.058 Y143.979 E0.19745
G1 X124.425 Y145.673 E0.20120
G1 X120.707 Y146.959 E0.19745
G1 X117.892 Y147.660 E0.14558
G1 X114.015 Y148.269 E0.19696
G1 X109.999 Y148.479 E0.20182
G1 X105.983 Y148.269 E0.20182
G1 X102.102 Y147.659 E0.19714
G1 X99.288 Y146.957 E0.14558
G1 X95.492 Y145.639 E0.20164
G1 X91.928 Y143.972 E0.19745
G1 X88.482 Y141.900 E0.20182
G1 X85.275 Y139.484 E0.20151
G1 X82.398 Y136.809 E0.19714
G1 X80.453 Y134.649 E0.14589
G1 X78.044 Y131.433 E0.20163
G1 X76.021 Y128.058 E0.19745
G1 X74.327 Y124.425 E0.20120
G1 X73.041 Y120.707 E0.19745
G1 X72.340 Y117.892 E0.14558
G1 X71.731 Y114.015 E0.19696
G1 X71.521 Y109.999 E0.20182
G1 X71.731 Y105.983 E0.20182
G1 X72.341 Y102.102 E0.19714
G1 X73.043 Y99.288 E0.14558
G1 X74.361 Y95.492 E0.20164
G1 X76.028 Y91.928 E0.19745
G1 X78.100 Y88.482 E0.20182
G1 X80.516 Y85.275 E0.20151
G1 X83.150 Y82.442 E0.19413
G1 E-3.50000 F3600.00000
G1 F6240.000
G1 X85.079 Y80.699 E-1.42500
G1 E-0.07500 F3600.00000
G1 X123.796 Y118.793 F7800.000
G1 E5.00000 F2400.00000
G1 F1800.000
G1 X123.796 Y101.362 E0.87481
G1 X123.106 Y101.362 E0.03462
G1 X123.106 Y118.638 E0.86702
G1 X122.416 Y118.638 E0.03462
G1 X122.416 Y101.362 E0.86702
G1 X121.726 Y101.362 E0.03462
G1 X121.726 Y118.638 E0.86702
G1 X121.462 Y118.638 E0.01324
G1 X121.462 Y121.462 E0.14174
G1 X121.036 Y121.462 E0.02137
G1 X121.036 Y98.538 E1.15050
G1 X120.347 Y98.538 E0.03462
G1 X120.347 Y121.462 E1.15050
G1 X119.657 Y121.462 E0.03462
G1 X119.657 Y98.538 E1.15050
G1 X118.967 Y98.538 E0.03462
G1 X118.967 Y121.462 E1.15050
G1 X118.638 Y121.462 E0.01651
G1 X118.638 Y124.287 E0.14174
G1 X118.277 Y124.287 E0.01810
G1 X118.277 Y95.713 E1.43397
G1 X117.588 Y95.713 E0.03462
G1 X117.588 Y124.287 E1.43397
G1 X116.898 Y124.287 E0.03462
G1 X116.898 Y95.713 E1.43397
G1 X116.208 Y95.713 E0.03462
G1 X116.208 Y124.287 E1.43397
G1 X115.518 Y124.287 E0.03462
G1 X115.518 Y95.713 E1.43397
G1 X114.828 Y95.713 E0.03462
G1 X114.828 Y124.287 E1.43397
G1 X114.139 Y124.287 E0.03462
G1 X114.139 Y95.713 E1.43397
G1 X113.449 Y95.713 E0.03462
G1 X113.449 Y124.287 E1.43397
G1 X112.759 Y124.287 E0.03462
G1 X112.759 Y95.713 E1.43397
G1 X112.069 Y95.713 E0.03462
G1 X112.069 Y124.287 E1.43397
G1 X111.380 Y124.287 E0.03462
G1 X111.380 Y95.713 E1.43397
G1 X110.690 Y95.713 E0.03462
G1 X110.690 Y124.287 E1.43397
G1 X110.000 Y124.287 E0.03462
G1 X110.000 Y95.713 E1.43397
G1 X109.310 Y95.713 E0.03462
G1 X109.310 Y124.287 E1.43397
G1 X108.620 Y124.287 E0.03462
G1 X108.620 Y95.713 E1.43397
G1 X107.931 Y95.713 E0.03462
G1 X107.931 Y124.287 E1.43397
G1 X107.241 Y124.287 E0.03462
G1 X107.241 Y95.713 E1.43397
G1 X106.551 Y95.713 E0.03462
G1 X106.551 Y124.287 E1.43397
G1 X105.861 Y124.287 E0.03462
G1 X105.861 Y95.713 E1.43397
G1 X105.172 Y95.713 E0.03462
G1 X105.172 Y124.287 E1.43397
G1 X104.482 Y124.287 E0.03462
G1 X104.482 Y95.713 E1.43397
G1 X103.792 Y95.713 E0.03462
G1 X103.792 Y124.287 E1.43397
G1 X103.102 Y124.287 E0.03462
G1 X103.102 Y95.713 E1.43397
G1 X102.412 Y95.713 E0.03462
G1 X102.412 Y124.287 E1.43397
G1 X101.723 Y124.287 E0.03462
G1 X101.723 Y95.713 E1.43397
G1 X101.362 Y95.713 E0.01811
G1 X101.362 Y98.538 E0.14174
G1 X101.033 Y98.538 E0.01651
G1 X101.033 Y121.462 E1.15050
G1 X100.343 Y121.462 E0.03462
G1 X100.343 Y98.538 E1.15050
G1 X99.653 Y98.538 E0.03462
G1 X99.653 Y121.462 E1.15050
G1 X98.964 Y121.462 E0.03462
G1 X98.964 Y98.538 E1.15050
G1 X98.538 Y98.538 E0.02137
G1 X98.538 Y101.362 E0.14174
G1 X98.274 Y101.362 E0.01324
G1 X98.274 Y118.638 E0.86702
G1 X97.584 Y118.638 E0.03462
G1 X97.584 Y101.362 E0.86702
G1 X96.894 Y101.362 E0.03462
G1 X96.894 Y118.638 E0.86702
G1 X96.204 Y118.638 E0.03462
G1 X96.204 Y101.207 E0.87481
G1 E-3.50000 F3600.00000
G1 F6240.000
G1 X96.204 Y103.807 E-1.42500
G1 E-0.07500 F3600.00000
G1 X130.891 Y130.174 F7800.000
G1 E5.00000 F2400.00000
G1 F1800.000
G1 X130.174 Y130.891 E0.05087
G1 X129.433 Y131.582 E0.05087
G1 X128.668 Y132.247 E0.05087
G1 X127.880 Y132.885 E0.05087
G1 X127.070 Y133.495 E0.05087
G1 X126.240 Y134.077 E0.05087
G1 X125.424 Y134.606 E0.04881
G1 X124.521 Y135.151 E0.05290
G1 X123.630 Y135.645 E0.05117
G1 X122.272 Y136.317 E0.07604
G1 X120.879 Y136.927 E0.07630
G1 X119.454 Y137.455 E0.07630
G1 X118.010 Y137.915 E0.07604
G1 X117.026 Y138.179 E0.05114
G1 X116.038 Y138.407 E0.05087
G1 X115.043 Y138.600 E0.05087
G1 X114.042 Y138.759 E0.05087
G1 X113.036 Y138.883 E0.05087
G1 X112.026 Y138.971 E0.05087
G1 X111.014 Y139.024 E0.05087
G1 X110.000 Y139.042 E0.05087
G1 X108.986 Y139.024 E0.05087
G1 X107.974 Y138.971 E0.05087
G1 X106.964 Y138.883 E0.05087
G1 X105.958 Y138.759 E0.05087
G1 X104.957 Y138.600 E0.05087
G1 X103.962 Y138.407 E0.05087
G1 X102.974 Y138.179 E0.05087
G1 X101.995 Y137.917 E0.05087
G1 X101.026 Y137.620 E0.05087
G1 X100.067 Y137.290 E0.05087
G1 X99.121 Y136.927 E0.05087
G1 X98.188 Y136.531 E0.05087
G1 X97.269 Y136.102 E0.05087
G1 X96.366 Y135.642 E0.05087
G1 X95.479 Y135.151 E0.05087
G1 X94.610 Y134.629 E0.05087
G1 X93.760 Y134.077 E0.05087
G1 X92.963 Y133.519 E0.04881
G1 X92.121 Y132.886 E0.05290
G1 X91.332 Y132.247 E0.05090
G1 X90.567 Y131.582 E0.05087
G1 X89.826 Y130.891 E0.05087
G1 X89.109 Y130.174 E0.05087
G1 X88.418 Y129.433 E0.05087
G1 X87.753 Y128.668 E0.05087
G1 X87.115 Y127.880 E0.05087
G1 X86.505 Y127.070 E0.05087
G1 X85.923 Y126.240 E0.05087
G1 X85.394 Y125.424 E0.04881
G1 X84.849 Y124.521 E0.05290
G1 X84.355 Y123.630 E0.05117
G1 X83.683 Y122.272 E0.07604
G1 X83.073 Y120.879 E0.07630
G1 X82.545 Y119.454 E0.07630
G1 X82.085 Y118.010 E0.07604
G1 X81.821 Y117.026 E0.05114
G1 X81.593 Y116.038 E0.05087
G1 X81.400 Y115.043 E0.05087
G1 X81.241 Y114.042 E0.05087
G1 X81.117 Y113.036 E0.05087
G1 X81.029 Y112.026 E0.05087
G1 X80.976 Y111.014 E0.05087
G1 X80.958 Y110.000 E0.05087
G1 X80.976 Y108.986 E0.05087
G1 X81.029 Y107.974 E0.05087
G1 X81.117 Y106.964 E0.05087
G1 X81.241 Y105.958 E0.05087
G1 X81.400 Y104.957 E0.05087
G1 X81.593 Y103.962 E0.05087
G1 X81.821 Y102.974 E0.05087
G1 X82.085 Y101.990 E0.05114
G1 X82.545 Y100.546 E0.07604
G1 X83.073 Y99.121 E0.07629
G1 X83.675 Y97.745 E0.07537
G1 X84.355 Y96.370 E0.07697
G1 X84.849 Y95.479 E0.05114
G1 X85.371 Y94.610 E0.05087
G1 X85.923 Y93.760 E0.05087
G1 X86.505 Y92.930 E0.05087
G1 X87.115 Y92.120 E0.05087
G1 X87.727 Y91.364 E0.04881
G1 X88.417 Y90.568 E0.05290
G1 X89.109 Y89.826 E0.05090
G1 X89.826 Y89.109 E0.05087
G1 X90.567 Y88.418 E0.05087
G1 X91.332 Y87.753 E0.05087
G1 X92.120 Y87.115 E0.05087
G1 X92.930 Y86.505 E0.05087
G1 X93.760 Y85.923 E0.05087
G1 X94.610 Y85.371 E0.05087
G1 X95.479 Y84.849 E0.05087
G1 X96.366 Y84.358 E0.05087
G1 X97.269 Y83.898 E0.05087
G1 X98.188 Y83.469 E0.05087
G1 X99.121 Y83.073 E0.05087
G1 X100.067 Y82.710 E0.05087
G1 X101.026 Y82.380 E0.05087
G1 X101.995 Y82.083 E0.05087
G1 X102.974 Y81.821 E0.05087
G1 X103.962 Y81.593 E0.05087
G1 X104.957 Y81.400 E0.05087
G1 X105.918 Y81.247 E0.04881
G1 X106.964 Y81.117 E0.05290
G1 X107.974 Y81.029 E0.05090
G1 X108.986 Y80.976 E0.05087
G1 X109.959 Y80.959 E0.04881
G1 X111.013 Y80.976 E0.05290
G1 X112.026 Y81.029 E0.05090
G1 X113.036 Y81.117 E0.05087
G1 X114.042 Y81.241 E0.05087
G1 X115.043 Y81.400 E0.05087
G1 X116.038 Y81.593 E0.05087
G1 X117.026 Y81.821 E0.05087
G1 X118.010 Y82.085 E0.05114
G1 X119.454 Y82.545 E0.07604
G1 X120.879 Y83.073 E0.07629
G1 X122.255 Y83.675 E0.07537
G1 X123.630 Y84.355 E0.07697
G1 X124.521 Y84.849 E0.05114
G1 X125.390 Y85.371 E0.05087
G1 X126.240 Y85.923 E0.05087
G1 X127.070 Y86.505 E0.05087
G1 X127.880 Y87.115 E0.05087
G1 X128.636 Y87.727 E0.04881
G1 X129.432 Y88.417 E0.05290
G1 X130.174 Y89.109 E0.05090
G1 X130.891 Y89.826 E0.05087
G1 X131.582 Y90.567 E0.05087
G1 X132.247 Y91.332 E0.05087
G1 X132.885 Y92.120 E0.05087
G1 X133.495 Y92.930 E0.05087
G1 X134.077 Y93.760 E0.05087
G1 X134.629 Y94.610 E0.05087
G1 X135.151 Y95.479 E0.05087
G1 X135.642 Y96.366 E0.05087
G1 X136.102 Y97.269 E0.05087
G1 X136.531 Y98.188 E0.05087
G1 X136.927 Y99.121 E0.05087
G1 X137.290 Y100.067 E0.05087
G1 X137.620 Y101.026 E0.05087
G1 X137.917 Y101.995 E0.05087
G1 X138.179 Y102.974 E0.05087
G1 X138.407 Y103.962 E0.05087
G1 X138.600 Y104.957 E0.05087
G1 X138.753 Y105.918 E0.04881
G1 X138.883 Y106.964 E0.05290
G1 X138.971 Y107.974 E0.05090
G1 X139.024 Y108.986 E0.05087
G1 X139.042 Y110.000 E0.05087
G1 X139.024 Y111.014 E0.05087
G1 X138.971 Y112.026 E0.05087
G1 X138.883 Y113.036 E0.05087
G1 X138.759 Y114.042 E0.05087
G1 X138.600 Y115.043 E0.05087
G1 X138.407 Y116.038 E0.05087
G1 X138.179 Y117.026 E0.05087
G1 X137.917 Y118.005 E0.05087
G1 X137.620 Y118.974 E0.05087
G1 X137.290 Y119.933 E0.05087
G1 X136.927 Y120.879 E0.05087
G1 X136.531 Y121.812 E0.05087
G1 X136.102 Y122.731 E0.05087
G1 X135.642 Y123.634 E0.05087
G1 X135.151 Y124.521 E0.05087
G1 X134.629 Y125.390 E0.05087
G1 X134.077 Y126.240 E0.05087
G1 X133.519 Y127.037 E0.04881
G1 X132.886 Y127.879 E0.05290
G1 X132.247 Y128.668 E0.05090
G1 X131.582 Y129.433 E0.05087
G1 X130.932 Y130.130 E0.04786
G1 X130.643 Y129.934 F7800.000
G1 F1800.000
G1 X129.934 Y130.643 E0.05027
G1 X129.202 Y131.326 E0.05027
G1 X128.446 Y131.983 E0.05027
G1 X127.667 Y132.613 E0.05027
G1 X126.868 Y133.216 E0.05027
G1 X126.047 Y133.791 E0.05027
G1 X125.241 Y134.314 E0.04822
G1 X124.349 Y134.852 E0.05230
G1 X123.469 Y135.339 E0.05045
G1 X122.126 Y136.004 E0.07523
G1 X120.750 Y136.607 E0.07539
G1 X119.341 Y137.129 E0.07539
G1 X117.913 Y137.584 E0.07523
G1 X116.942 Y137.844 E0.05043
G1 X115.966 Y138.070 E0.05027
G1 X114.983 Y138.261 E0.05027
G1 X113.994 Y138.417 E0.05027
G1 X113.000 Y138.540 E0.05027
G1 X112.002 Y138.627 E0.05027
G1 X111.002 Y138.679 E0.05027
G1 X110.000 Y138.697 E0.05027
G1 X108.998 Y138.679 E0.05027
G1 X107.998 Y138.627 E0.05027
G1 X107.000 Y138.540 E0.05027
G1 X106.006 Y138.417 E0.05027
G1 X105.017 Y138.261 E0.05027
G1 X104.034 Y138.070 E0.05027
G1 X103.058 Y137.844 E0.05027
G1 X102.090 Y137.585 E0.05027
G1 X101.132 Y137.292 E0.05027
G1 X100.185 Y136.966 E0.05027
G1 X99.250 Y136.607 E0.05027
G1 X98.328 Y136.216 E0.05027
G1 X97.420 Y135.792 E0.05027
G1 X96.528 Y135.338 E0.05027
G1 X95.652 Y134.852 E0.05027
G1 X94.793 Y134.336 E0.05027
G1 X93.953 Y133.791 E0.05027
G1 X93.166 Y133.240 E0.04822
G1 X92.333 Y132.614 E0.05230
G1 X91.554 Y131.983 E0.05029
G1 X90.798 Y131.326 E0.05027
G1 X90.066 Y130.643 E0.05027
G1 X89.357 Y129.934 E0.05027
G1 X88.674 Y129.202 E0.05027
G1 X88.017 Y128.446 E0.05027
G1 X87.387 Y127.667 E0.05027
G1 X86.784 Y126.868 E0.05027
G1 X86.209 Y126.047 E0.05027
G1 X85.686 Y125.241 E0.04822
G1 X85.148 Y124.349 E0.05230
G1 X84.661 Y123.469 E0.05045
G1 X83.996 Y122.126 E0.07523
G1 X83.393 Y120.750 E0.07539
G1 X82.871 Y119.341 E0.07539
G1 X82.416 Y117.913 E0.07523
G1 X82.156 Y116.942 E0.05043
G1 X81.930 Y115.966 E0.05027
G1 X81.739 Y114.983 E0.05027
G1 X81.583 Y113.994 E0.05027
G1 X81.460 Y113.000 E0.05027
G1 X81.373 Y112.002 E0.05027
G1 X81.321 Y111.002 E0.05027
G1 X81.303 Y110.000 E0.05027
G1 X81.321 Y108.998 E0.05027
G1 X81.373 Y107.998 E0.05027
G1 X81.460 Y107.000 E0.05027
G1 X81.583 Y106.006 E0.05027
G1 X81.739 Y105.017 E0.05027
G1 X81.930 Y104.034 E0.05027
G1 X82.156 Y103.058 E0.05027
G1 X82.416 Y102.087 E0.05043
G1 X82.871 Y100.659 E0.07523
G1 X83.393 Y99.250 E0.07539
G1 X83.988 Y97.891 E0.07446
G1 X84.661 Y96.531 E0.07616
G1 X85.148 Y95.652 E0.05043
G1 X85.664 Y94.793 E0.05027
G1 X86.209 Y93.953 E0.05027
G1 X86.784 Y93.132 E0.05027
G1 X87.387 Y92.333 E0.05027
G1 X87.991 Y91.586 E0.04822
G1 X88.674 Y90.798 E0.05230
G1 X89.357 Y90.066 E0.05029
G1 X90.066 Y89.357 E0.05027
G1 X90.798 Y88.674 E0.05027
G1 X91.554 Y88.017 E0.05027
G1 X92.333 Y87.387 E0.05027
G1 X93.132 Y86.784 E0.05027
G1 X93.953 Y86.209 E0.05027
G1 X94.793 Y85.664 E0.05027
G1 X95.652 Y85.148 E0.05027
G1 X96.528 Y84.662 E0.05027
G1 X97.420 Y84.208 E0.05027
G1 X98.328 Y83.784 E0.05027
G1 X99.250 Y83.393 E0.05027
G1 X100.185 Y83.034 E0.05027
G1 X101.132 Y82.708 E0.05027
G1 X102.090 Y82.415 E0.05027
G1 X103.058 Y82.156 E0.05027
G1 X104.034 Y81.930 E0.05027
G1 X105.017 Y81.739 E0.05027
G1 X105.966 Y81.589 E0.04822
G1 X107.000 Y81.461 E0.05230
G1 X107.998 Y81.373 E0.05029
G1 X108.998 Y81.321 E0.05027
G1 X109.959 Y81.304 E0.04822
G1 X111.001 Y81.321 E0.05230
G1 X112.002 Y81.373 E0.05029
G1 X113.000 Y81.460 E0.05027
G1 X113.994 Y81.583 E0.05027
G1 X114.983 Y81.739 E0.05027
G1 X115.966 Y81.930 E0.05027
G1 X116.942 Y82.156 E0.05027
G1 X117.913 Y82.416 E0.05043
G1 X119.341 Y82.871 E0.07523
G1 X120.750 Y83.393 E0.07539
G1 X122.109 Y83.988 E0.07446
G1 X123.469 Y84.661 E0.07616
G1 X124.348 Y85.148 E0.05043
G1 X125.207 Y85.664 E0.05027
G1 X126.047 Y86.209 E0.05027
G1 X126.868 Y86.784 E0.05027
G1 X127.667 Y87.387 E0.05027
G1 X128.414 Y87.991 E0.04822
G1 X129.202 Y88.674 E0.05230
G1 X129.934 Y89.357 E0.05029
G1 X130.643 Y90.066 E0.05027
G1 X131.326 Y90.798 E0.05027
G1 X131.983 Y91.554 E0.05027
G1 X132.613 Y92.333 E0.05027
G1 X133.216 Y93.132 E0.05027
G1 X133.791 Y93.953 E0.05027
G1 X134.336 Y94.793 E0.05027
G1 X134.852 Y95.652 E0.05027
G1 X135.338 Y96.528 E0.05027
G1 X135.792 Y97.420 E0.05027
G1 X136.216 Y98.328 E0.05027
G1 X136.607 Y99.250 E0.05027
G1 X136.966 Y100.185 E0.05027
G1 X137.292 Y101.132 E0.05027
G1 X137.585 Y102.090 E0.05027
G1 X137.844 Y103.058 E0.05027
G1 X138.070 Y104.034 E0.05027
G1 X138.261 Y105.017 E0.05027
G1 X138.411 Y105.966 E0.04822
G1 X138.539 Y107.000 E0.05230
G1 X138.627 Y107.998 E0.05029
G1 X138.679 Y108.998 E0.05027
G1 X138.697 Y110.000 E0.05027
G1 X138.679 Y111.002 E0.05027
